!!!!SEGMENT: pl-cz--iii-686--003_volckmer-augustin--requiem-domine-jesu-christe.krn
!!!cenid: 18xx:1142
!!!COM: Volckmer, Augustin
!!!COM-rismid: pe30020656
!!!CDT: 1755-~1820
!!!CNT:
!!!OPR: Requiem
!!!OTL: Domine Jesu Christe
!!!OMV: 003
!!!PDT: 1836
!!!AGN: Sacred; Requiem
!!!SMS-siglum: PL-CZ
!!!SMS-shelfmark: III-686
!!!SMS-shelfwork: 001-003 M
!!!SMS-variant:
!!!SMS-altvar:
!!!NIFC-rismid: 300001401
!!!URL-scan: http://repozytoriumplikow.nifc.pl/skany/pl-cz-nut--iii-686
!!!ONB-nifc: UWAGA: części Requiem: Requiem, Dies irae, Domine Jesu Christe, Sanctus et Benedictus, Agnus Dei. Uwaga: Sanctus i Benedictus to jedna część
!!!key: E-
**kern	**fba	**dynam	**kern	**dynam	**kern	**dynam	**kern	**text	**kern	**text	**kern	**text	**kern	**text	**kern	**kern	**kern	**kern	**kern	**dynam	**kern	**kern	**dynam
*	*	*	*group4	*	*group4	*	*group3	*	*group3	*	*group3	*	*group3	*	*group2	*group2	*group2	*group2	*group1	*	*group1	*group1	*
*part14	*	*part14	*part13	*part13	*part12	*part12	*part11	*part11	*part10	*part10	*part9	*part9	*part8	*part8	*part7	*part6	*part5	*part4	*part3	*part3	*part2	*part1	*part1
*staff14	*	*	*staff13	*	*staff12	*	*staff11	*staff11	*staff10	*staff10	*staff9	*staff9	*staff8	*staff8	*staff7	*staff6	*staff5	*staff4	*staff3	*	*staff2	*staff1	*
*I"Organo.	*	*	*I"Violino IIdo	*	*I"Violino Primo	*	*I"Basso	*	*I"Tenore,	*	*I"Alto.	*	*I"Canto	*	*I"Tromba IIdo in Es	*I"Tromba 1ma in Es	*I"Cornuo IIdo in Es.	*I"Corno Prymo in Es	*I"Fagotto.	*	*I"Clarinetto IIdo in B.	*I"Clarinetto 1mo in B.	*
*I'org	*	*	*I'vl 2	*	*I'vl 1	*	*I'B	*	*I'T	*	*I'A	*	*I'S	*	*I'tr 2 in E|b	*I'tr 1 in E|b	*I'cor 2 in E|b	*I'cor 1 in E|b	*I'fag	*	*I'cl 2 in B|b	*I'cl 1 in B|b	*
*Iorgan	*	*	*Ivioln	*	*Ivioln	*	*Ibass	*	*Itenor	*	*Ialto	*	*Isoprn	*	*Itromp	*Itromp	*Icor	*Icor	*Ifagot	*	*Iclars	*Iclars	*
*ICklav	*	*	*ICstr	*	*ICstr	*	*ICvox	*	*ICvox	*	*ICvox	*	*ICvox	*	*ICbras	*ICbras	*ICbras	*ICbras	*ICww	*	*ICww	*ICww	*
*IGcont	*	*	*	*	*	*	*IGcoro	*	*IGcoro	*	*IGcoro	*	*IGcoro	*	*	*	*	*	*	*	*	*	*
*clefF4	*	*	*clefG2	*	*clefG2	*	*clefF4	*	*clefC4	*	*clefC3	*	*clefC1	*	*clefG2	*clefG2	*clefG2	*clefG2	*clefF4	*	*clefG2	*clefG2	*
*	*	*	*	*	*	*	*	*	*	*	*	*	*	*	*ITrd-2c-3	*ITrd-2c-3	*ITrd-2c-3	*ITrd-2c-3	*	*	*ITrd1c2	*ITrd1c2	*
*k[b-e-]	*	*	*k[b-e-a-]	*	*k[b-e-a-]	*	*k[b-e-]	*	*k[b-e-a-]	*	*k[b-e-a-]	*	*k[a- b-e-]	*	*k[b-e-a-]	*k[b-e-a-]	*k[b-e-a-]	*k[b-e-a-]	*k[a-b-e-]	*	*k[b-e-a-]	*k[b-e-a-]	*
*E-:	*	*	*E-:	*	*E-:	*	*E-:	*	*E-:	*	*E-:	*	*E-:	*	*E-:	*E-:	*E-:	*E-:	*E-:	*	*E-:	*E-:	*
*M2/4	*	*	*M2/4	*	*M2/4	*	*M2/4	*	*M2/4	*	*M2/4	*	*M2/4	*	*M2/4	*M2/4	*M2/4	*M2/4	*M2/4	*	*M2/4	*M2/4	*
=1	=1	=1	=1	=1	=1	=1	=1	=1	=1	=1	=1	=1	=1	=1	=1	=1	=1	=1	=1	=1	=1	=1	=1
*	*	*	*	*	*	*	*	*	*	*	*	*	*	*	*	*	*	*all\right	*	*	*all\right	*all\right	*
!	!	!	!	!	!	!	!	!	!	!	!LO:TX:a:i:t=Solo.	!	!LO:TX:a:t=4	!	!	!	!	!	!	!	!	!	!
!LO:TX:t=P:problem:niedokładnie wpisane znaki C- F-	!	!	!	!	!	!	!LO:TX:t=P:problem:niedokładnie wpisane znaki C- F-	!	!	!	!	!	!LO:TX:t=P:problem:niedokładnie wpisane znaki f- b- e-	!	!	!	!	!	!LO:TX:t=P:problem:niedokładnie wpisane znaki C- E- G-	!	!	!	!
!LO:TX:a:i:t=Adagio.	!	!	!LO:TX:a:i:t=Adagio	!	!LO:TX:a:i:t=Adagio	!	!LO:TX:a:t=Adagio	!	!LO:TX:a:t=P:problem:w tej części brak partii w źródle, wpisane takty pochodzą z partii Violino Primo	!	!LO:TX:a:t=adagio	!	!LO:TX:a:t=Adagio:color=grey	!	!LO:TX:a:t=adagio	!LO:TX:a:i:t=Adagio	!LO:TX:a:t=adagio	!LO:TX:a:i:t=adagio	!	!	!LO:TX:a:t=Adagio	!LO:TX:a:i:t=Offerto&colon; Adagio	!
!LO:TX:a:i:t=Offertorium	!	!	!LO:TX:a:i:t=Offertorium	!	!LO:TX:a:Bi:t=Offertorium	!LO:DY:b:rj:t=pio	!LO:TX:a:Bi:t=Offertorium	!	!	!	!LO:TX:a:i:t=Offertorium:color=grey	!	!LO:TX:a:Bi:t=Offertorium	!	!LO:TX:a:i:t=Offertorio	!LO:TX:a:i:t=Offertorium	!LO:TX:a:i:t=Offertorium	!LO:TX:a:i:t=Offertorium	!LO:TX:a:i:t=Offertorio	!	!LO:TX:a:i:t=Offertorium	!	!
4E-\	.	.	16G/LL	.	16G/LL	p	2r	.	2ryy	.	4e-\	Do-	0r	.	4e-/	4g/	4g/	4ee-\	4E-\	p	4g\	4ee-\	p
.	.	.	16B-/	.	16B-/	.	.	.	.	.	.	.	.	.	.	.	.	.	.	.	.	.	.
.	.	.	16e-/	.	16e-/	.	.	.	.	.	.	.	.	.	.	.	.	.	.	.	.	.	.
.	.	.	16B-/JJ	.	16B-/JJ	.	.	.	.	.	.	.	.	.	.	.	.	.	.	.	.	.	.
4BB-/	.	.	16A-/LL	.	16A-/LL	.	.	.	.	.	8g\L	-mi-	.	.	4B-/	4b-/	4b-/	4ff\	4BB-/	.	4b-\	4ff\	.
.	.	.	16B-/	.	16B-/	.	.	.	.	.	.	.	.	.	.	.	.	.	.	.	.	.	.
.	.	.	16d/	.	16d/	.	.	.	.	.	16f\L	.	.	.	.	.	.	.	.	.	.	.	.
.	.	.	16B-/JJ	.	16B-/JJ	.	.	.	.	.	16e-\JJ	.	.	.	.	.	.	.	.	.	.	.	.
=2	=2	=2	=2	=2	=2	=2	=2	=2	=2	=2	=2	=2	=2	=2	=2	=2	=2	=2	=2	=2	=2	=2	=2
!	!	!	!	!	!	!	!LO:TX:a:t=Solo	!	!	!	!	!	!	!	!	!	!	!	!	!	!	!	!
8E-\	.	.	16G/LL	.	16G/LL	.	8r	.	2ryy	.	8e-\	-ne	.	.	8e-/	8g/	8g/	8ee-\	8E-\	.	4g/	4ee-\	.
.	.	.	16B-/	.	16B-/	.	.	.	.	.	.	.	.	.	.	.	.	.	.	.	.	.	.
8r	.	.	16e-/	.	16e-/	.	8B-\L	Je-	.	.	8r	.	.	.	8r	8r	8r	8r	8r	.	.	.	.
.	.	.	16B-/JJ	.	16B-/JJ	.	.	.	.	.	.	.	.	.	.	.	.	.	.	.	.	.	.
4r	.	.	16g/LL	.	16g/LL	.	8G\J	.	.	.	4r	.	.	.	4r	4r	4r	4r	4r	.	4r	4r	.
.	.	.	16e-/	.	16e-/	.	.	.	.	.	.	.	.	.	.	.	.	.	.	.	.	.	.
.	.	.	16B-/	.	16B-/	.	8E-\	-su	.	.	.	.	.	.	.	.	.	.	.	.	.	.	.
.	.	.	16G/JJ	.	16G/JJ	.	.	.	.	.	.	.	.	.	.	.	.	.	.	.	.	.	.
!	!	!	!	!	!LO:LB:g=original	!	!	!	!	!	!	!	!	!	!	!	!	!	!	!	!	!	!
=3	=3	=3	=3	=3	=3	=3	=3	=3	=3	=3	=3	=3	=3	=3	=3	=3	=3	=3	=3	=3	=3	=3	=3
*2\right	*	*	*	*	*	*	*	*	*	*	*	*	*	*	*	*	*	*	*	*	*	*	*
!	!	!	!	!	!	!	!	!	!	!	!LO:TX:a:i:t=Offertorium:color=grey	!	!	!	!	!	!	!	!	!	!	!	!
4B-\	.	.	16B-/LL	.	16B-/LL	.	8B-\	Chri-	2ryy	.	4f\	Rex	.	.	4B-/	4b-/	4b-/	4ff\	4B-\	.	4dd\	4ff\	.
.	.	.	16d/	.	16d/	.	.	.	.	.	.	.	.	.	.	.	.	.	.	.	.	.	.
.	.	.	16f/	.	16f/	.	8BB-\	-ſte	.	.	.	.	.	.	.	.	.	.	.	.	.	.	.
.	.	.	16d/JJ	.	16d/JJ	.	.	.	.	.	.	.	.	.	.	.	.	.	.	.	.	.	.
4G\	.	.	16B-/LL	.	16B-/LL	.	4r	.	.	.	8a-\	glo-	.	.	4e-/	4g/	4ee-\	4gg\	4E-\	.	4ee-\	4gg\	.
!	!	!	!	!	!LO:TX:b:t=e	!	!	!	!	!	!	!	!	!	!	!	!	!	!	!	!	!	!
.	.	.	16e-/	.	16e-/	.	.	.	.	.	.	.	.	.	.	.	.	.	.	.	.	.	.
!	!	!	!	!	!LO:TX:b:t=g	!	!	!	!	!	!	!	!	!	!	!	!	!	!	!	!	!	!
.	.	.	16g/	.	16g/	.	.	.	.	.	16g\LL	-ri-	.	.	.	.	.	.	.	.	.	.	.
!	!	!	!	!	!LO:TX:b:t=e	!	!	!	!	!	!	!	!	!	!	!	!	!	!	!	!	!	!
.	.	.	16e-/JJ	.	16e-/JJ	.	.	.	.	.	16f\JJ	.	.	.	.	.	.	.	.	.	.	.	.
!	!	!	!	!	!	!	!	!	!	!	!	!	!	!	!	!	!	!	!	!	!LO:LB:g=original	!	!
=4	=4	=4	=4	=4	=4	=4	=4	=4	=4	=4	=4	=4	=4	=4	=4	=4	=4	=4	=4	=4	=4	=4	=4
!	!	!	!	!	!	!	!LO:TX:a:t=4.	!	!	!	!	!	!	!	!	!	!	!	!	!	!	!	!
8BB-/	.	.	16B-/LL	.	16B-/LL	.	0r	.	2ryy	.	8f\	a	.	.	8B-/	8b-/	8b-/	8ff\	8BB-/	.	8dd\	8ff\	.
.	.	.	16d/	.	16d/	.	.	.	.	.	.	.	.	.	.	.	.	.	.	.	.	.	.
8r	.	.	16f/	.	16f/	.	.	.	.	.	8r	.	.	.	8r	8r	8r	8r	8r	.	8r	8r	.
.	.	.	16b-/JJ	.	16b-/JJ	.	.	.	.	.	.	.	.	.	.	.	.	.	.	.	.	.	.
4r	.	.	16dd\LL	.	16dd\LL	.	.	.	.	.	4r	.	.	.	4r	4r	4r	4r	4r	.	4r	4r	.
.	.	.	16ff\	.	16ff\	.	.	.	.	.	.	.	.	.	.	.	.	.	.	.	.	.	.
.	.	.	16dd\	.	16dd\	.	.	.	.	.	.	.	.	.	.	.	.	.	.	.	.	.	.
.	.	.	16b-\JJ	.	16b-\JJ	.	.	.	.	.	.	.	.	.	.	.	.	.	.	.	.	.	.
!	!	!	!LO:LB:g=original	!	!	!	!	!	!	!	!	!	!	!	!	!	!	!LO:LB:g=original	!	!	!	!	!
=5	=5	=5	=5	=5	=5	=5	=5	=5	=5	=5	=5	=5	=5	=5	=5	=5	=5	=5	=5	=5	=5	=5	=5
*	*	*	*	*	*	*	*	*	*	*	*	*	*	*	*	*	*	*2\right	*2\right	*	*	*	*
!	!	!	!LO:TX:a:t=P:problem:mixed beam	!	!LO:TX:a:t=P:problem:mixed beam	!	!	!	!	!	!	!	!	!	!	!	!	!	!	!	!	!	!
2E-\	.	.	16ee-\LL	.	16ee-\LL	.	.	.	2ryy	.	8r	.	8r	.	2e-/	2e-/	2e-/	2ee-\	2E-\	.	8g/L	8ee-\L	.
.	.	.	16e-/J	.	16e-/	.	.	.	.	.	.	.	.	.	.	.	.	.	.	.	.	.	.
.	.	.	8cc\J	.	16ee-\	.	.	.	.	.	8cc\L	Om-	8ee-\L	Om-	.	.	.	.	.	.	8g/	8ee-\	.
.	.	.	.	.	16e-/JJ	.	.	.	.	.	.	.	.	.	.	.	.	.	.	.	.	.	.
!	!	!	!	!	!LO:TX:a:t=P:problem:mixed beam	!	!	!	!	!	!	!	!	!	!	!	!	!	!	!	!	!	!
.	.	.	8b-\L	.	16dd\LL	.	.	.	.	.	8b-\	.	8dd\J	.	.	.	.	.	.	.	8b-/	8dd\	.
.	.	.	.	.	16e-/JJ	.	.	.	.	.	.	.	.	.	.	.	.	.	.	.	.	.	.
!	!	!	!	!	!LO:TX:a:t=P:problem:mixed beam	!	!	!	!	!	!	!	!	!	!	!	!	!	!	!	!	!	!
.	.	.	8a-\J	.	16cc\LL	.	.	.	.	.	8a-\J	-ni-	8cc\	-ni-	.	.	.	.	.	.	8a-/J	8cc\J	.
.	.	.	.	.	16e-/JJ	.	.	.	.	.	.	.	.	.	.	.	.	.	.	.	.	.	.
!	!	!	!	!	!	!	!	!	!	!	!LO:LB:g=original	!	!	!	!	!	!	!	!	!	!	!	!
=6	=6	=6	=6	=6	=6	=6	=6	=6	=6	=6	=6	=6	=6	=6	=6	=6	=6	=6	=6	=6	=6	=6	=6
2E-\	.	.	8g/L	.	16b-/LL	.	.	.	2ryy	.	8g\	-um	8b-\	-um	2e-/	2e-/	2e-/	2ee-\	2E-\	.	8g/L	8b-\L	.
.	.	.	.	.	16e-/	.	.	.	.	.	.	.	.	.	.	.	.	.	.	.	.	.	.
.	.	.	8f#X/	.	16an/	.	.	.	.	.	8f#X\	fi-	8an\	fi-	.	.	.	.	.	.	8f#X/	8a\	.
.	.	.	.	.	16e-/JJ	.	.	.	.	.	.	.	.	.	.	.	.	.	.	.	.	.	.
.	.	.	8g/	.	16b-/LL	.	.	.	.	.	8g\	-de-	8b-\	-de-	.	.	.	.	.	.	8g/	8b-\	.
.	.	.	.	.	16e-/	.	.	.	.	.	.	.	.	.	.	.	.	.	.	.	.	.	.
.	.	.	8f#/J	.	16a/	.	.	.	.	.	8f#\	-li-	8a\	-li-	.	.	.	.	.	.	8f#/J	8a\J	.
.	.	.	.	.	16e-/JJ	.	.	.	.	.	.	.	.	.	.	.	.	.	.	.	.	.	.
!LO:LB:g=original	!	!	!	!	!	!	!	!	!	!	!	!	!	!	!	!	!	!	!	!	!	!	!
=7	=7	=7	=7	=7	=7	=7	=7	=7	=7	=7	=7	=7	=7	=7	=7	=7	=7	=7	=7	=7	=7	=7	=7
!	!	!	!	!	!	!	!	!	!	!	!LO:N:vis=4	!	!	!	!	!	!	!	!	!	!	!	!
8E-\	.	.	8g/	.	16b-\LL	.	.	.	2ryy	.	8g\	-um	8b-\	-um	8e-/L	8e-/L	8e-/L	8ee-\L	8E-\	.	4g/	8b-\L	.
.	.	.	.	.	16g\	.	.	.	.	.	.	.	.	.	.	.	.	.	.	.	.	.	.
8r	.	.	8r	.	16ee-\	.	.	.	.	.	8r	.	8r	.	8B-/	8b-/	8b-/	8bb-\	8r	.	.	8ee-\	.
.	.	.	.	.	16b-\JJ	.	.	.	.	.	.	.	.	.	.	.	.	.	.	.	.	.	.
4r	.	.	4r	.	16gg\LL	.	.	.	.	.	4r	.	4r	.	8e-/	8e-/	8e-/	8ee-\	4r	.	4r	8gg\	.
.	.	.	.	.	16ee-\	.	.	.	.	.	.	.	.	.	.	.	.	.	.	.	.	.	.
.	.	.	.	.	16b-\	.	.	.	.	.	.	.	.	.	8g/J	8g/J	8g/J	8gg\J	.	.	.	8gg\J	.
.	.	.	.	.	16g\JJ	.	.	.	.	.	.	.	.	.	.	.	.	.	.	.	.	.	.
!	!	!	!	!	!	!	!LO:LB:g=original	!	!	!	!	!	!LO:LB:g=original	!	!	!LO:LB:g=original	!	!	!	!	!	!LO:LB:g=original	!
=8	=8	=8	=8	=8	=8	=8	=8	=8	=8	=8	=8	=8	=8	=8	=8	=8	=8	=8	=8	=8	=8	=8	=8
4B-\	.	.	16G/LL	.	4e-/	.	8BB-/	De-	2ryy	.	8B-/	De-	8e-\	-de-	4b-/	2b-/	2B-/	2b-/	4B-\	.	4g/	4ee-\	.
.	.	.	16B-/	.	.	.	.	.	.	.	.	.	.	.	.	.	.	.	.	.	.	.	.
.	.	.	16e-/	.	.	.	8BB-/	-fun-	.	.	8B-/	-func-	8e-\	-fun-	.	.	.	.	.	.	.	.	.
.	.	.	16B-/JJ	.	.	.	.	.	.	.	.	.	.	.	.	.	.	.	.	.	.	.	.
4BB-/	.	.	16A-/LL	.	8g/L	.	4BB-/	-cto-	.	.	4B-/	-to-	8g\L	-cto-	4B-/	.	.	.	4BB-/	.	8b-\L	8gg\L	.
.	.	.	16B-/	.	.	.	.	.	.	.	.	.	.	.	.	.	.	.	.	.	.	.	.
.	.	.	16d/	.	8f/J	.	.	.	.	.	.	.	8f\J	.	.	.	.	.	.	.	8a-\J	8ff\J	.
.	.	.	16B-/JJ	.	.	.	.	.	.	.	.	.	.	.	.	.	.	.	.	.	.	.	.
!	!	!	!	!	!LO:LB:g=original	!	!	!	!	!	!	!	!	!	!	!	!	!	!	!	!	!	!
=9	=9	=9	=9	=9	=9	=9	=9	=9	=9	=9	=9	=9	=9	=9	=9	=9	=9	=9	=9	=9	=9	=9	=9
*	*	*	*	*	*	*	*	*	*	*	*	*	*	*	*	*2\right	*	*	*	*	*	*	*
!	!	!	!LO:TX:a:t=P:problem:mixed beam	!	!LO:TX:a:t=P:problem:mixed beam	!	!	!	!	!	!	!	!	!	!	!	!	!	!	!	!	!	!
2E-\	.	.	16G/LL	.	8e-/L	.	8E-\	-rum	2ryy	.	8B-\	-rum	8e-\	-rum	2e-/	2ee-\	2e-/	2ee-\	2E-\	.	8g\L	8ee-\L	.
.	.	.	16B-/J	.	.	.	.	.	.	.	.	.	.	.	.	.	.	.	.	.	.	.	.
.	.	.	8cc\J	.	16ee-\L	.	8r	.	.	.	8cc\	de	8ee-\	de	.	.	.	.	.	.	8cc\	8ee-\	.
.	.	.	.	.	16e-/JJ	.	.	.	.	.	.	.	.	.	.	.	.	.	.	.	.	.	.
!	!	!	!	!	!LO:TX:a:t=P:problem:mixed beam	!	!	!	!	!	!	!	!	!	!	!	!	!	!	!	!	!	!
.	.	.	8b-\L	.	16dd\LL	.	4r	.	.	.	8b-\L	pa-	8dd\L	pe-	.	.	.	.	.	.	8b-\	8dd\	.
.	.	.	.	.	16e-/JJ	.	.	.	.	.	.	.	.	.	.	.	.	.	.	.	.	.	.
!	!	!	!	!	!LO:TX:a:t=P:problem:mixed beam	!	!	!	!	!	!LO:TX:t=P:problem:dziura w źródle	!	!	!	!	!	!	!	!	!	!	!	!
.	.	.	8a-\J	.	16cc\LL	.	.	.	.	.	8a-\Jyy	.	8cc\J	.	.	.	.	.	.	.	8a-\J	8cc\J	.
.	.	.	.	.	16e-/JJ	.	.	.	.	.	.	.	.	.	.	.	.	.	.	.	.	.	.
=10	=10	=10	=10	=10	=10	=10	=10	=10	=10	=10	=10	=10	=10	=10	=10	=10	=10	=10	=10	=10	=10	=10	=10
!	!	!	!	!	!	!	!LO:TX:a:t=1	!	!	!	!	!	!	!	!	!	!	!	!	!	!	!	!
2E-\	.	.	8g/L	.	16b-/LL	.	2r	.	2ryy	.	8g\L	-nis	8b-\	-nis	2e-/	2e-/	2e-/	2ee-\	2E-\	.	8g/L	8b-\L	.
.	.	.	.	.	16e-/	.	.	.	.	.	.	.	.	.	.	.	.	.	.	.	.	.	.
.	.	.	8f#X/	.	16an/	.	.	.	.	.	8f#X\J	in-	8an\	in	.	.	.	.	.	.	8f#X/	8a\	.
.	.	.	.	.	16e-/JJ	.	.	.	.	.	.	.	.	.	.	.	.	.	.	.	.	.	.
.	.	.	8g/	.	16b-/LL	.	.	.	.	.	8g\L	-fer-	8b-\L	fer-	.	.	.	.	.	.	8g/	8b-\	.
.	.	.	.	.	16e-/	.	.	.	.	.	.	.	.	.	.	.	.	.	.	.	.	.	.
.	.	.	8f#/J	.	16a/	.	.	.	.	.	8f#\J	.	8a\J	.	.	.	.	.	.	.	8f#/J	8a\J	.
.	.	.	.	.	16e-/JJ	.	.	.	.	.	.	.	.	.	.	.	.	.	.	.	.	.	.
!	!	!	!	!	!	!	!	!	!	!	!	!	!	!	!	!	!LO:LB:g=original	!	!	!	!	!	!
=11	=11	=11	=11	=11	=11	=11	=11	=11	=11	=11	=11	=11	=11	=11	=11	=11	=11	=11	=11	=11	=11	=11	=11
8E-\	.	.	8g/	.	16b-\LL	.	8r	.	2ryy	.	8g\	-ni	8b-\	-ni	8e-/L	8e-/L	8e-/L	8ee-\L	8E-\	.	4g/	8ee-\L	.
.	.	.	.	.	16g\	.	.	.	.	.	.	.	.	.	.	.	.	.	.	.	.	.	.
8r	.	.	8r	.	16ee-\	.	8B-\	et	.	.	8r	.	4r	.	8B-/	8b-/	8g/	8bb-\	8r	.	.	8bb-\	.
.	.	.	.	.	16b-\JJ	.	.	.	.	.	.	.	.	.	.	.	.	.	.	.	.	.	.
4r	.	.	4r	.	16gg\LL	.	8E-\	de-	.	.	4r	.	.	.	8e-/	8e-/	8e-/	8ee-\	4r	.	4r	8ee-\	.
.	.	.	.	.	16ee-\	.	.	.	.	.	.	.	.	.	.	.	.	.	.	.	.	.	.
.	.	.	.	.	16b-\	.	8G\	-pro-	.	.	.	.	8r	.	8g/J	8g/J	8g/J	8gg\J	.	.	.	8gg\J	.
.	.	.	.	.	16g\JJ	.	.	.	.	.	.	.	.	.	.	.	.	.	.	.	.	.	.
=12	=12	=12	=12	=12	=12	=12	=12	=12	=12	=12	=12	=12	=12	=12	=12	=12	=12	=12	=12	=12	=12	=12	=12
4B-\	.	.	16G/LL	.	4e-/	.	8BB-/	-fun-	2ryy	.	2B-/	la-	4e-/	la-	4b-/	2b-/	2B-/	2b-/	4B-\	.	4g\	4ee-\	.
.	.	.	16B-/	.	.	.	.	.	.	.	.	.	.	.	.	.	.	.	.	.	.	.	.
.	.	.	16e-/	.	.	.	8BB-/	-do	.	.	.	.	.	.	.	.	.	.	.	.	.	.	.
.	.	.	16B-/JJ	.	.	.	.	.	.	.	.	.	.	.	.	.	.	.	.	.	.	.	.
4BB-/	.	.	16A-/LL	.	8g/L	.	4BB-/	la-	.	.	.	.	8g/L	.	4B-/	.	.	.	4BB-/	.	8b-\L	8gg\L	.
.	.	.	16B-/	.	.	.	.	.	.	.	.	.	.	.	.	.	.	.	.	.	.	.	.
.	.	.	16d/	.	8f/J	.	.	.	.	.	.	.	8f/J	.	.	.	.	.	.	.	8a-\J	8ff\J	.
.	.	.	16B-/JJ	.	.	.	.	.	.	.	.	.	.	.	.	.	.	.	.	.	.	.	.
!	!	!	!LO:LB:g=original	!	!	!	!	!	!	!	!	!	!	!	!LO:LB:g=original	!	!	!	!LO:PB:g=original	!	!	!	!
=13	=13	=13	=13	=13	=13	=13	=13	=13	=13	=13	=13	=13	=13	=13	=13	=13	=13	=13	=13	=13	=13	=13	=13
!LO:TX:a:t=Tutti	!	!	!	!	!	!LO:DY:a:t=for	!	!	!	!	!	!	!	!	!	!	!	!	!LO:TX:a:t=Tutti	!LO:DY:b:t=for	!	!	!
!LO:TX:b:t=cor	!	!	!	!	!	!	!	!	!	!	!	!	!	!	!	!	!	!	!	!	!	!	!
8E-\L	.	.	16G/LL	.	8e-/L	f	8E-\	-cu	2ryy	.	8B-/	-cu	8e-/	-cu	8e-/	8g/	8e-/	8ee-\	8E-\L	f	4g/	8ee-\L	.
.	.	.	16B-/	.	.	.	.	.	.	.	.	.	.	.	.	.	.	.	.	.	.	.	.
8E-\J	.	.	16e-/	.	16e-/L	.	8E-\	li-	.	.	8r	.	8r	.	8r	8r	8r	8r	8E-\J	.	.	8ee-\	.
.	.	.	16g/JJ	.	16g/JJ	.	.	.	.	.	.	.	.	.	.	.	.	.	.	.	.	.	.
8D\L|	.	.	16d/LL	.	16d/LL	.	8D\	-be-	.	.	4r	.	4r	.	4r	4r	4r	4r	8D\L	.	4r	8dd\	.
.	.	.	16g/	.	16g/	.	.	.	.	.	.	.	.	.	.	.	.	.	.	.	.	.	.
8C\J|	.	.	16c/	.	16c/	.	8C\	-ra	.	.	.	.	.	.	.	.	.	.	8C\J	.	.	8cc\J	.
.	.	.	16g/JJ	.	16g/JJ	.	.	.	.	.	.	.	.	.	.	.	.	.	.	.	.	.	.
!	!	!	!	!	!	!	!LO:LB:g=original	!	!	!	!LO:LB:g=original	!	!LO:LB:g=original	!	!	!	!	!	!	!	!LO:LB:g=original	!	!
=14	=14	=14	=14	=14	=14	=14	=14	=14	=14	=14	=14	=14	=14	=14	=14	=14	=14	=14	=14	=14	=14	=14	=14
*	*	*	*	*	*2\right	*	*	*	*	*	*	*	*	*	*	*	*	*	*	*	*	*	*
*	*	*	*tremolo	*	*tremolo	*	*	*	*	*	*	*	*	*	*	*	*	*	*	*	*	*	*
!LO:TX:a:t=P:problem:mixed beam	!	!	!	!	!	!	!	!	!	!	!	!	!	!	!	!	!	!	!LO:TX:a:t=P:problem:mixed beam	!	!	!	!
8GG/L	n_	.	32g/LLL	.	32bn\LLL	.	4GG/	e-	2ryy	.	4g\	e-	4bn\	e-	8g/	4g/	4g/	4gg\	8GG/L	.	4g/	4gg\	.
.	.	.	32g/	.	32bn\	.	.	.	.	.	.	.	.	.	.	.	.	.	.	.	.	.	.
.	.	.	32g/	.	32bn\	.	.	.	.	.	.	.	.	.	.	.	.	.	.	.	.	.	.
.	.	.	32g/	.	32bn\	.	.	.	.	.	.	.	.	.	.	.	.	.	.	.	.	.	.
8G\	.	.	32g/	.	32bn\	.	.	.	.	.	.	.	.	.	8r	.	.	.	8G\	.	.	.	.
.	.	.	32g/	.	32bn\	.	.	.	.	.	.	.	.	.	.	.	.	.	.	.	.	.	.
.	.	.	32g/	.	32bn\	.	.	.	.	.	.	.	.	.	.	.	.	.	.	.	.	.	.
.	.	.	32g/	.	32bn\	.	.	.	.	.	.	.	.	.	.	.	.	.	.	.	.	.	.
8G\	.	.	32g/	.	32bn\	.	8GG/	-as	.	.	8g\	-as	8b\	-as	4r	4r	4r	4r	8G\	.	4r	4r	.
.	.	.	32g/	.	32bn\	.	.	.	.	.	.	.	.	.	.	.	.	.	.	.	.	.	.
.	.	.	32g/	.	32bn\	.	.	.	.	.	.	.	.	.	.	.	.	.	.	.	.	.	.
.	.	.	32g/	.	32bn\	.	.	.	.	.	.	.	.	.	.	.	.	.	.	.	.	.	.
8G\J	.	.	32g/	.	32bn\	.	8GG/	de	.	.	8g\	ce-	8b\	de	.	.	.	.	8G\J	.	.	.	.
.	.	.	32g/	.	32bn\	.	.	.	.	.	.	.	.	.	.	.	.	.	.	.	.	.	.
.	.	.	32g/	.	32bn\	.	.	.	.	.	.	.	.	.	.	.	.	.	.	.	.	.	.
.	.	.	32g/JJJ	.	32bn\JJJ	.	.	.	.	.	.	.	.	.	.	.	.	.	.	.	.	.	.
=15	=15	=15	=15	=15	=15	=15	=15	=15	=15	=15	=15	=15	=15	=15	=15	=15	=15	=15	=15	=15	=15	=15	=15
!LO:TX:a:t=P:problem:mixed beam	!	!	!	!	!	!	!	!	!	!	!	!	!	!	!LO:TX:a:t=1.	!	!	!	!LO:TX:a:t=P:problem:mixed beam	!	!	!	!
8A-X\L	6\	.	32f#X/LLL	.	32cc\LLL	.	4AA-X/	o-	2ryy	.	4f#X\	-o-	4cc\	e-	2r	2r	2r	2r	8A-X\L	.	4f#X/	4ff#X\	.
.	.	.	32f#X/	.	32cc\	.	.	.	.	.	.	.	.	.	.	.	.	.	.	.	.	.	.
.	.	.	32f#X/	.	32cc\	.	.	.	.	.	.	.	.	.	.	.	.	.	.	.	.	.	.
.	.	.	32f#X/	.	32cc\	.	.	.	.	.	.	.	.	.	.	.	.	.	.	.	.	.	.
8AA-y/J	.	.	32f#X/	.	32cc\	.	.	.	.	.	.	.	.	.	.	.	.	.	8AA-/J	.	.	.	.
.	.	.	32f#X/	.	32cc\	.	.	.	.	.	.	.	.	.	.	.	.	.	.	.	.	.	.
.	.	.	32f#X/	.	32cc\	.	.	.	.	.	.	.	.	.	.	.	.	.	.	.	.	.	.
.	.	.	32f#X/	.	32cc\	.	.	.	.	.	.	.	.	.	.	.	.	.	.	.	.	.	.
8AA-/L	.	.	32f#X/	.	32cc\	.	8AA-/	-re	.	.	8f#\	-nel	8cc\	-ne	.	.	.	.	8AA-/L	.	4r	4r	.
.	.	.	32f#X/	.	32cc\	.	.	.	.	.	.	.	.	.	.	.	.	.	.	.	.	.	.
.	.	.	32f#X/	.	32cc\	.	.	.	.	.	.	.	.	.	.	.	.	.	.	.	.	.	.
.	.	.	32f#X/	.	32cc\	.	.	.	.	.	.	.	.	.	.	.	.	.	.	.	.	.	.
8AA-/J	.	.	32f#X/	.	32cc\	.	8AA-/	le-	.	.	8f#\	le-	8cc\	le-	.	.	.	.	8AA-/J	.	.	.	.
.	.	.	32f#X/	.	32cc\	.	.	.	.	.	.	.	.	.	.	.	.	.	.	.	.	.	.
.	.	.	32f#X/	.	32cc\	.	.	.	.	.	.	.	.	.	.	.	.	.	.	.	.	.	.
.	.	.	32f#X/JJJ	.	32cc\JJJ	.	.	.	.	.	.	.	.	.	.	.	.	.	.	.	.	.	.
!LO:LB:g=original	!	!	!	!	!LO:LB:g=original	!	!	!	!	!	!	!	!	!	!	!	!	!	!	!	!	!	!
=16	=16	=16	=16	=16	=16	=16	=16	=16	=16	=16	=16	=16	=16	=16	=16	=16	=16	=16	=16	=16	=16	=16	=16
!LO:TX:a:t=P:problem:mixed beam	!	!	!	!	!LO:SIC:s=2bn	!	!	!	!	!	!	!	!	!	!	!	!	!	!LO:TX:a:t=P:problem:mixed beam	!	!	!	!
8GG/L	n_	.	32g/LLL	.	32b-\LLL	.	8GG/	-o-	2ryy	.	8g\	-o-	8bn\	-o-	8g/	4g/	4g/	4gg\	8GG/L	.	4g/	4gg\	.
.	.	.	32g/	.	32b-\	.	.	.	.	.	.	.	.	.	.	.	.	.	.	.	.	.	.
.	.	.	32g/	.	32b-\	.	.	.	.	.	.	.	.	.	.	.	.	.	.	.	.	.	.
.	.	.	32g/	.	32b-\	.	.	.	.	.	.	.	.	.	.	.	.	.	.	.	.	.	.
8G\	.	.	32g/	.	32b-\	.	8GG/	-nis	.	.	8g\	-nis	8b\	-nis	8r	.	.	.	8G\	.	.	.	.
.	.	.	32g/	.	32b-\	.	.	.	.	.	.	.	.	.	.	.	.	.	.	.	.	.	.
.	.	.	32g/	.	32b-\	.	.	.	.	.	.	.	.	.	.	.	.	.	.	.	.	.	.
.	.	.	32g/	.	32b-\	.	.	.	.	.	.	.	.	.	.	.	.	.	.	.	.	.	.
8G\	.	.	32g/	.	32b-\	.	8GG/	ne	.	.	8g\	ne	8b\	ne	4r	4r	4r	4r	8G\	.	4r	4r	.
.	.	.	32g/	.	32b-\	.	.	.	.	.	.	.	.	.	.	.	.	.	.	.	.	.	.
.	.	.	32g/	.	32b-\	.	.	.	.	.	.	.	.	.	.	.	.	.	.	.	.	.	.
.	.	.	32g/	.	32b-\	.	.	.	.	.	.	.	.	.	.	.	.	.	.	.	.	.	.
8G\J	.	.	32g/	.	32b-\	.	8GG/	ab-	.	.	8g\	ab-	8b\	ab-	.	.	.	.	8G\J	.	.	.	.
.	.	.	32g/	.	32b-\	.	.	.	.	.	.	.	.	.	.	.	.	.	.	.	.	.	.
.	.	.	32g/	.	32b-\	.	.	.	.	.	.	.	.	.	.	.	.	.	.	.	.	.	.
.	.	.	32g/JJJ	.	32b-\JJJ	.	.	.	.	.	.	.	.	.	.	.	.	.	.	.	.	.	.
!	!	!	!	!	!	!	!	!	!	!	!	!	!	!	!	!	!	!LO:LB:g=original	!	!	!	!LO:LB:g=original	!
=17	=17	=17	=17	=17	=17	=17	=17	=17	=17	=17	=17	=17	=17	=17	=17	=17	=17	=17	=17	=17	=17	=17	=17
!LO:TX:a:t=P:problem:mixed beam	!	!	!	!	!	!	!	!	!	!	!	!	!	!	!LO:TX:a:t=1.	!	!	!	!LO:TX:a:t=P:problem:mixed beam	!	!	!	!
!LO:SIC:v:s=8A-\L	!	!	!	!	!	!	!	!	!	!	!	!	!	!	!	!	!	!	!	!	!	!	!
8A\L	6\_	.	32f#X/LLL	.	32cc\LLL	.	8AA-X/	-sor-	2ryy	.	8f\	-son-	8cc\	-sor-	2r	2r	2r	2r	8A-\L	.	4f#X/	4ff#X\	.
.	.	.	32f#X/	.	32cc\	.	.	.	.	.	.	.	.	.	.	.	.	.	.	.	.	.	.
.	.	.	32f#X/	.	32cc\	.	.	.	.	.	.	.	.	.	.	.	.	.	.	.	.	.	.
.	.	.	32f#X/	.	32cc\	.	.	.	.	.	.	.	.	.	.	.	.	.	.	.	.	.	.
!LO:SIC:v:s=8AA-/	!	!	!	!	!	!	!	!	!	!	!	!	!	!	!	!	!	!	!	!	!	!	!
8AA/	.	.	32f#X/	.	32cc\	.	16AA-/	-be-	.	.	16f\	-be-	16cc\	-be-	.	.	.	.	8AA-/	.	.	.	.
.	.	.	32f#X/	.	32cc\	.	.	.	.	.	.	.	.	.	.	.	.	.	.	.	.	.	.
.	.	.	32f#X/	.	32cc\	.	16AA-/	-at	.	.	16f\	-at	16cc\	-at	.	.	.	.	.	.	.	.	.
.	.	.	32f#X/	.	32cc\	.	.	.	.	.	.	.	.	.	.	.	.	.	.	.	.	.	.
!LO:SIC:v:s=8AA-/	!	!	!	!	!	!	!	!	!	!	!	!	!	!	!	!	!	!	!	!	!	!	!
8AA/	.	.	32f#X/	.	32cc\	.	8AA-/	e-	.	.	8f\	e-	8cc\	e-	.	.	.	.	8AA-/	.	4r	4r	.
.	.	.	32f#X/	.	32cc\	.	.	.	.	.	.	.	.	.	.	.	.	.	.	.	.	.	.
.	.	.	32f#X/	.	32cc\	.	.	.	.	.	.	.	.	.	.	.	.	.	.	.	.	.	.
.	.	.	32f#X/	.	32cc\	.	.	.	.	.	.	.	.	.	.	.	.	.	.	.	.	.	.
!LO:SIC:v:s=8AA-/J	!	!	!	!	!	!	!	!	!	!	!	!	!	!	!	!	!	!	!	!	!	!	!
8AA/J	.	.	32f#X/	.	32cc\	.	8AA-/	-as	.	.	8f\	-as	8cc\	-as	.	.	.	.	8AA-/J	.	.	.	.
.	.	.	32f#X/	.	32cc\	.	.	.	.	.	.	.	.	.	.	.	.	.	.	.	.	.	.
.	.	.	32f#X/	.	32cc\	.	.	.	.	.	.	.	.	.	.	.	.	.	.	.	.	.	.
.	.	.	32f#X/JJJ	.	32cc\JJJ	.	.	.	.	.	.	.	.	.	.	.	.	.	.	.	.	.	.
=18	=18	=18	=18	=18	=18	=18	=18	=18	=18	=18	=18	=18	=18	=18	=18	=18	=18	=18	=18	=18	=18	=18	=18
!LO:TX:a:t=P:problem:mixed beam	!	!	!	!	!LO:SIC:s=2bn	!	!	!	!	!	!	!	!	!	!	!	!	!	!LO:TX:a:t=P:problem:mixed beam	!	!	!	!
8GG/L	n_	.	32g/LLL	.	32b-\LLL	.	8.GG/	Ar-	2ryy	.	8.g\	tar-	8.bn\	tar-	8g/	4g/	4g/	4gg\	8GG/L	.	4g/	4gg\	.
.	.	.	32g/	.	32b-\	.	.	.	.	.	.	.	.	.	.	.	.	.	.	.	.	.	.
.	.	.	32g/	.	32b-\	.	.	.	.	.	.	.	.	.	.	.	.	.	.	.	.	.	.
.	.	.	32g/	.	32b-\	.	.	.	.	.	.	.	.	.	.	.	.	.	.	.	.	.	.
8G\	.	.	32g/	.	32b-\	.	.	.	.	.	.	.	.	.	8r	.	.	.	8G\	.	.	.	.
.	.	.	32g/	.	32b-\	.	.	.	.	.	.	.	.	.	.	.	.	.	.	.	.	.	.
.	.	.	32g/	.	32b-\	.	16GG/	-nis	.	.	16g\	-ta-	16b\	-ta-	.	.	.	.	.	.	.	.	.
.	.	.	32g/	.	32b-\	.	.	.	.	.	.	.	.	.	.	.	.	.	.	.	.	.	.
8G\	.	.	32g/	.	32b-\	.	8GG/	.	.	.	8g\	-ris	8b\	-rus	4r	4r	4r	4r	8G\	.	4r	4r	.
.	.	.	32g/	.	32b-\	.	.	.	.	.	.	.	.	.	.	.	.	.	.	.	.	.	.
.	.	.	32g/	.	32b-\	.	.	.	.	.	.	.	.	.	.	.	.	.	.	.	.	.	.
.	.	.	32g/	.	32b-\	.	.	.	.	.	.	.	.	.	.	.	.	.	.	.	.	.	.
8G\J	.	.	32g/	.	32b-\	.	8GG/	ne	.	.	8g\	ne	8b\	ne-	.	.	.	.	8G\J	.	.	.	.
.	.	.	32g/	.	32b-\	.	.	.	.	.	.	.	.	.	.	.	.	.	.	.	.	.	.
.	.	.	32g/	.	32b-\	.	.	.	.	.	.	.	.	.	.	.	.	.	.	.	.	.	.
.	X	.	32g/JJJ	.	32b-\JJJ	.	.	.	.	.	.	.	.	.	.	.	.	.	.	.	.	.	.
*	*	*	*Xtremolo	*	*Xtremolo	*	*	*	*	*	*	*	*	*	*	*	*	*	*	*	*	*	*
!	!	!	!	!	!	!	!LO:LB:g=original	!	!	!	!LO:LB:g=original	!	!LO:LB:g=original	!	!	!	!	!	!	!	!	!	!
=19	=19	=19	=19	=19	=19	=19	=19	=19	=19	=19	=19	=19	=19	=19	=19	=19	=19	=19	=19	=19	=19	=19	=19
!	!	!	!	!LO:HP:a:t=decrescendo	!	!	!	!	!	!	!	!	!	!	!LO:TX:a:t=3.	!LO:TX:a:t=4:color=grey:problem:liczba pauz poprawiona	!LO:TX:a:t=3.	!LO:TX:a:t=3	!	!	!LO:TX:a:t=3	!LO:TX:a:t=3.	!
!	!	!	!	!	!	!	!	!	!	!	!	!	!	!	!	!LO:TX:b:t=4:color=grey	!	!	!	!	!	!	!
4C\	8 -3	.	4e-X/	>	4cc\	.	4C/	ca-	2ryy	.	4e-X\	can-	4cc\	-ca-	1r	0r	1r	1r	4C\	.	1r	1r	.
4D\	-6 3	.	4fn/	.	8b-X\L	.	4D/	-dant	.	.	4fn\	-dat	8b-X\L	-e-	.	.	.	.	4D\	.	.	.	.
.	-5	.	.	.	8a-X\J	.	.	.	.	.	.	.	8a-X\J	-ant	.	.	.	.	.	.	.	.	.
=20	=20	=20	=20	=20	=20	=20	=20	=20	=20	=20	=20	=20	=20	=20	=20	=20	=20	=20	=20	=20	=20	=20	=20
4.E-\	3 1	.	4.e-/	.	4.g/	.	4.E-X\	in	2ryy	.	4.e-\	in	4.g/	in	.	.	.	.	4.E-\	.	.	.	.
8F\	8 6	.	8d/	.	8f/	.	8F\	ob-	.	.	8d\	obs-	8f/	ob-	.	.	.	.	8F\	.	.	.	.
=21	=21	=21	=21	=21	=21	=21	=21	=21	=21	=21	=21	=21	=21	=21	=21	=21	=21	=21	=21	=21	=21	=21	=21
!	!	!	!	!LO:DY:b:rj:t=po	!	!	!	!	!	!	!	!	!	!	!	!	!	!	!	!	!	!	!
4G\	6 4	.	4c/	p	4e-/	.	4G\	-scu-	2ryy	.	4c\	-cu-	4e-/	-scu-	2r	.	2r	2r	4G\	.	2r	2r	.
4GG/	5 n	.	4Bn/	.	4d/	.	4GG/	.	.	.	4Bn\	.	4d/	.	.	.	.	.	4GG/	.	.	.	.
=22	=22	=22	=22	=22	=22	=22	=22	=22	=22	=22	=22	=22	=22	=22	=22	=22	=22	=22	=22	=22	=22	=22	=22
*	*	*	*	*	*^	*	*	*	*	*	*	*	*	*	*	*	*	*	*	*	*	*	*
8C/	.	.	8c/	.	8c/	8ryy	.	8C\	-rum	2ryy	.	8c\	-rum	8c/	-rus	2ryy	.	4r	4r	4C/	.	4r	4r	.
!	!	!	!	!LO:DY:a:t=for	!	!	!	!	!	!	!	!	!	!	!	!	!	!	!	!	!	!	!	!
8r	.	.	8r	f	8r	8ryy	.	8r	.	.	.	8r	.	8r	.	.	.	.	.	.	.	.	.	.
4F\	n	.	4e- 4c/	.	4an/	4f\	.	4Gn\	Sed	.	.	4r	.	4r	.	.	.	4ff\	4ff\	8r	.	4fn/	4ff\	.
!	!	!	!	!	!	!	!	!	!	!	!	!	!	!	!	!	!	!	!	!LO:N:vis=4	!	!	!	!
.	.	.	.	.	.	.	.	.	.	.	.	.	.	.	.	.	.	.	.	8F\	.	.	.	.
!LO:LB:g=original	!	!	!	!	!	!	!	!	!	!	!	!	!	!	!	!	!	!	!	!	!	!	!	!
=23	=23	=23	=23	=23	=23	=23	=23	=23	=23	=23	=23	=23	=23	=23	=23	=23	=23	=23	=23	=23	=23	=23	=23	=23
*	*	*	*	*	*	*	*	*	*	*	*	*	*	*	*	*	*	*	*	*	*	*	*2\right	*
!	!	!	!	!	!	!	!	!	!	!	!	!	!	!LO:TX:a:t=1:color=grey	!	!	!	!	!	!	!	!	!	!
2BB-/	8	.	2d-X 2B-/	.	2b-/	2f\	.	8.B-X\	si-	2ryy	.	2r	.	2r	.	2B-/	2b-/	2b-/	2ff\	2BB-/	.	2f/	2ff\	.
.	.	.	.	.	.	.	.	16BB-/	-gni-	.	.	.	.	.	.	.	.	.	.	.	.	.	.	.
.	.	.	.	.	.	.	.	8BB-/	-fer	.	.	.	.	.	.	.	.	.	.	.	.	.	.	.
.	.	.	.	.	.	.	.	8r	.	.	.	.	.	.	.	.	.	.	.	.	.	.	.	.
*	*	*	*	*	*v	*v	*	*	*	*	*	*	*	*	*	*	*	*	*	*	*	*	*	*
=24	=24	=24	=24	=24	=24	=24	=24	=24	=24	=24	=24	=24	=24	=24	=24	=24	=24	=24	=24	=24	=24	=24	=24
!LO:TX:a:t=2	!	!	!LO:TX:a:t=P:problem:nad pauzami dopisane takty partii altowej	!	!LO:TX:a:t=P:problem:nad pauzą dopisane dwa takty partii tenorowej	!	!	!	!	!	!	!	!	!	!LO:TX:a:t=3.	!LO:TX:a:t=3	!LO:TX:a:t=3	!LO:TX:a:t=3	!LO:TX:a:t=2	!	!LO:TX:a:t=3	!LO:TX:a:t=3	!
1r	.	.	1r	.	1r	.	4BB-/	San-	4B-\	San-	4f\	San-	4dd\	San-	1r	1r	1r	1r	1r	.	1r	1r	.
.	.	.	.	.	.	.	4BB-/	-ctus	4B-\	-ctus	4f\	-ctus	4dd\	-ctus	.	.	.	.	.	.	.	.	.
=25	=25	=25	=25	=25	=25	=25	=25	=25	=25	=25	=25	=25	=25	=25	=25	=25	=25	=25	=25	=25	=25	=25	=25
.	.	.	.	.	.	.	4BB-/	mi-	4.B-\	Mi-	4f\	Mi-	4dd\	Mi-	.	.	.	.	.	.	.	.	.
.	.	.	.	.	.	.	8.E-\L	-cha-	.	.	8.g\L	-cha-	8.ee-\L	-cha-	.	.	.	.	.	.	.	.	.
.	.	.	.	.	.	.	.	.	8B-\	-cha-	.	.	.	.	.	.	.	.	.	.	.	.	.
.	.	.	.	.	.	.	16BB-\Jk	.	.	.	16f\Jk	.	16dd\Jk	.	.	.	.	.	.	.	.	.	.
!	!	!	!	!	!	!	!LO:LB:g=original	!	!	!	!	!	!	!	!	!	!	!	!	!	!	!	!
=26	=26	=26	=26	=26	=26	=26	=26	=26	=26	=26	=26	=26	=26	=26	=26	=26	=26	=26	=26	=26	=26	=26	=26
!	!	!	!	!	!	!	!	!	!	!	!	!	!	!	!	!	!	!	!	!LO:DY:a:t=fo	!	!	!
4r	.	.	4r	.	4r	.	8BB-/	-el	4B-\	-el	4f\	-el	4dd\	-el	2r	2r	2r	2r	4r	f	2r	2r	.
.	.	.	.	.	.	.	8r	.	.	.	.	.	.	.	.	.	.	.	.	.	.	.	.
!	!	!LO:DY:a:t=for	!	!LO:DY:b	!	!	!LO:TX:a:t=f:color=grey	!	!	!	!	!	!	!	!	!	!	!	!	!	!	!	!
16F\LL	.	f	16e-/LL	p	16f/LL	.	16F\	re-	4r	.	4r	.	4r	.	.	.	.	.	16F\LL	.	.	.	.
!	!	!	!	!	!	!	!LO:TX:a:t=f:color=grey	!	!	!	!	!	!	!	!	!	!	!	!	!	!	!	!
16F\	.	.	16f/	.	16f/	.	16F\	-pre-	.	.	.	.	.	.	.	.	.	.	16F\	.	.	.	.
!	!	!	!	!	!	!	!LO:TX:a:t=g:color=grey	!	!	!	!	!	!	!	!	!	!	!	!	!	!	!	!
16G\	.	.	16g/	.	16g/	.	16G\	-sen-	.	.	.	.	.	.	.	.	.	.	16G\	.	.	.	.
16An\JJ	.	.	16an/JJ	.	16an/JJ	.	16An\	-dent	.	.	.	.	.	.	.	.	.	.	16An\JJ	.	.	.	.
!	!	!	!LO:LB:g=original	!	!	!	!	!	!	!	!	!	!	!	!	!LO:LB:g=original	!	!	!LO:LB:g=original	!	!	!	!
=27	=27	=27	=27	=27	=27	=27	=27	=27	=27	=27	=27	=27	=27	=27	=27	=27	=27	=27	=27	=27	=27	=27	=27
*	*	*	*2\right	*	*	*	*	*	*	*	*	*	*	*	*	*	*	*	*	*	*	*	*
!	!	!	!	!	!	!	!	!	!	!	!	!	!LO:TX:a:t=1:color=grey	!	!	!	!	!	!	!	!	!	!
2B-\	.	.	2b-\	.	2b-\	.	4B-X\	e-	2ryy	.	2r	.	2r	.	2B-/	2b-/	2B-/	2b-/	2B-\	.	2B-/	2b-\	.
.	.	.	.	.	.	.	8BB-/	-as	.	.	.	.	.	.	.	.	.	.	.	.	.	.	.
.	.	.	.	.	.	.	8r	.	.	.	.	.	.	.	.	.	.	.	.	.	.	.	.
!	!	!	!	!	!	!	!	!	!	!	!LO:LB:g=original	!	!LO:LB:g=original	!	!	!	!	!	!	!	!	!	!
=28	=28	=28	=28	=28	=28	=28	=28	=28	=28	=28	=28	=28	=28	=28	=28	=28	=28	=28	=28	=28	=28	=28	=28
!	!	!	!LO:TX:a:t=3	!	!	!	!	!	!	!	!	!	!	!	!	!	!	!	!	!	!	!	!
!LO:TX:a:t=2	!	!	!LO:TX:a:t=P:problem:nad pauzami dopisane takty partii altowej	!	!LO:TX:a:t=P:problem:nad pauzami dopisane trzy takty partii tenorowej	!	!	!	!	!	!	!	!	!	!LO:TX:a:t=8.	!LO:TX:a:t=8	!LO:TX:a:t=8.	!LO:TX:a:t=8	!LO:TX:a:t=2	!	!LO:TX:a:t=8	!LO:TX:a:t=8	!
1r	.	.	1r	.	1r	.	4BB-/	in	4B-\	in	4f\	in	4dd\	in	0r	0r	0r	0r	1r	.	0r	0r	.
.	.	.	.	.	.	.	8BB-/	lu-	8B-\	lu-	8f\	lu-	8dd\	lu-	.	.	.	.	.	.	.	.	.
.	.	.	.	.	.	.	8BB-/	-cem	8B-\	-cem	8f\	-cem	8dd\	-cem	.	.	.	.	.	.	.	.	.
=29	=29	=29	=29	=29	=29	=29	=29	=29	=29	=29	=29	=29	=29	=29	=29	=29	=29	=29	=29	=29	=29	=29	=29
*	*	*	*	*	*	*	*	*	*	*	*2\right	*	*	*	*	*	*	*	*	*	*	*	*
.	.	.	.	.	.	.	4.BB-/	s(an)-	4.B-\	san-	2f\	San-	4.dd\	san-	.	.	.	.	.	.	.	.	.
.	.	.	.	.	.	.	8F\	-ctam	8An\	.	.	.	8cc\	.	.	.	.	.	.	.	.	.	.
=30	=30	=30	=30	=30	=30	=30	=30	=30	=30	=30	=30	=30	=30	=30	=30	=30	=30	=30	=30	=30	=30	=30	=30
8r	.	.	2r	.	2r	.	4F\	quam	8A-\	-ctum	8f\	-ctum	8cc\	-ctum	.	.	.	.	8r	.	.	.	.
!LO:TX:a:t=Tutti	!	!	!	!	!	!	!	!	!	!	!	!	!	!	!	!	!	!	!LO:TX:a:t=Tutti	!	!	!	!
8F\L	.	.	.	.	.	.	.	.	8r	.	8r	.	8r	.	.	.	.	.	8F\L	.	.	.	.
8G\	.	.	.	.	.	.	8G\	o-	4r	.	4r	.	4r	.	.	.	.	.	8G\	.	.	.	.
8An\J	.	.	.	.	.	.	8An\	-lim	.	.	.	.	.	.	.	.	.	.	8An\J	.	.	.	.
!	!	!	!	!	!LO:LB:g=original	!	!LO:LB:g=original	!	!	!	!	!	!	!	!	!	!	!	!	!	!	!	!
=31	=31	=31	=31	=31	=31	=31	=31	=31	=31	=31	=31	=31	=31	=31	=31	=31	=31	=31	=31	=31	=31	=31	=31
4B-\	.	.	8r	.	8r	.	8.B-\	A-	2ryy	.	8r	.	8r	.	.	.	.	.	4B-\	.	.	.	.
.	.	.	8d/L	.	8b-\L	.	.	.	.	.	8b-\L	pro-	8b-\L	pre-	.	.	.	.	.	.	.	.	.
.	.	.	.	.	.	.	16BB-/	-bra-	.	.	.	.	.	.	.	.	.	.	.	.	.	.	.
4BB-/	.	.	8e-/	.	8cc\	.	4BB-/	-ham	.	.	8an\J	.	8cc\J	.	.	.	.	.	4BB-/	.	.	.	.
.	.	.	8f/J	.	8dd\J	.	.	.	.	.	8a-X\	-mi	8dd\	-mi	.	.	.	.	.	.	.	.	.
=32	=32	=32	=32	=32	=32	=32	=32	=32	=32	=32	=32	=32	=32	=32	=32	=32	=32	=32	=32	=32	=32	=32	=32
2E-\	.	.	8g/L	.	8ee-\L	.	4.E-\	pro-	2ryy	.	8g\L	si-	8ee-\L	si-	0r	0r	0r	0r	2E-\	.	0r	0r	.
.	.	.	8f/	.	8dd\	.	.	.	.	.	8f\J	.	8dd\J	.	.	.	.	.	.	.	.	.	.
.	.	.	8e-/	.	8cc\	.	.	.	.	.	8e-\	-sti	8cc\	-sti	.	.	.	.	.	.	.	.	.
.	.	.	8d/J	.	8b-\J	.	8E-\	-mi-	.	.	8d\	et	8b-\	et	.	.	.	.	.	.	.	.	.
=33	=33	=33	=33	=33	=33	=33	=33	=33	=33	=33	=33	=33	=33	=33	=33	=33	=33	=33	=33	=33	=33	=33	=33
2F\	.	.	8c/L	.	8an/L	.	4F\	-sis-	2ryy	.	8c\L	Se-	8an\L	se-	.	.	.	.	2F\	.	.	.	.
.	.	.	8e-/	.	8g/	.	.	.	.	.	8e-\J	.	8g\J	.	.	.	.	.	.	.	.	.	.
.	.	.	8d/	.	8f/	.	8F\	-ti	.	.	8d\	-mi-	8f/	-mi-	.	.	.	.	.	.	.	.	.
!	!	!	!	!	!	!	!LO:TX:b:t=P:problem:sylaba porawiona ołówkiem na "et"	!	!	!	!	!	!	!	!	!	!	!	!	!	!	!	!
.	.	.	8c/J	.	8e-/J	.	8F\	te	.	.	8c\	-ni	8e-/	-ni	.	.	.	.	.	.	.	.	.
!LO:LB:g=original	!	!	!	!	!	!	!	!	!	!	!	!	!LO:LB:g=original	!	!	!	!	!	!	!	!	!	!
=34	=34	=34	=34	=34	=34	=34	=34	=34	=34	=34	=34	=34	=34	=34	=34	=34	=34	=34	=34	=34	=34	=34	=34
*	*	*	*	*	*	*	*	*	*	*	*	*ij	*	*	*	*	*	*	*	*	*	*	*
!LO:TX:a:t=Solo	!	!	!	!	!	!	!	!	!	!	!	!	!	!	!	!	!	!	!	!	!	!	!
4G\	.	.	4B-/	.	4d/	.	4G\	se-	2ryy	.	4B-\	Se-	4d/	se-	.	.	.	.	4G\	.	.	.	.
4E-\	10	.	4B-/	.	4g/	.	8E-\	-mi-	.	.	8e-\	mi-	8g\L	-mi-	.	.	.	.	4E-\	.	.	.	.
.	.	.	.	.	.	.	8E-\	-ni	.	.	8e-\	-ni	8g\J	-ni	.	.	.	.	.	.	.	.	.
*	*	*	*	*	*	*	*	*	*	*	*	*Xij	*	*	*	*	*	*	*	*	*	*	*
!	!	!	!	!	!	!	!	!	!	!	!LO:LB:g=original	!	!	!	!	!	!	!	!	!	!	!	!
=35	=35	=35	=35	=35	=35	=35	=35	=35	=35	=35	=35	=35	=35	=35	=35	=35	=35	=35	=35	=35	=35	=35	=35
*	*	*	*	*	*	*	*2\right	*	*	*	*	*	*	*	*	*	*	*	*	*	*	*	*
4F\	5_ 4	.	4B-/	.	4c/	.	2F\	e-	2ryy	.	2c\	e-	2f/	e-	.	.	.	.	4F\	.	.	.	.
4FF/	x n3	.	4An/	.	4f/	.	.	.	.	.	.	.	.	.	.	.	.	.	4FF/	.	.	.	.
!	!	!	!	!	!	!	!	!	!	!	!	!	!	!	!	!	!LO:LB:g=original	!	!	!	!LO:LB:g=original	!	!
=36	=36	=36	=36	=36	=36	=36	=36	=36	=36	=36	=36	=36	=36	=36	=36	=36	=36	=36	=36	=36	=36	=36	=36
8BB-/	5	.	8B-/	.	8d/	.	8BB-/	-jus	2ryy	.	8d\	-jus	8f/	-jus	4r	4r	4r	4r	8BB-/	.	4r	4r	.
8r	.	.	8r	.	8r	.	8r	.	.	.	8r	.	8r	.	.	.	.	.	8r	.	.	.	.
4B-\	.	.	4r	.	4r	.	4B-\	tu	.	.	4r	.	4r	.	4B-/	4b-/	4B-/	4b-/	4B-\	.	4f/	4b-\	.
=37	=37	=37	=37	=37	=37	=37	=37	=37	=37	=37	=37	=37	=37	=37	=37	=37	=37	=37	=37	=37	=37	=37	=37
!	!	!	!	!	!LO:TX:a:t=P:problem:nad pauzami dopisane takty partii tenorowej	!	!	!	!	!	!	!	!	!	!	!	!	!	!	!	!	!	!
!	!	!	!LO:TX:a:t=P:problem:nad pauzami dopisane takty partii altowej	!	!LO:TX:a:t=8.	!	!	!	!	!	!	!	!	!	!	!	!	!	!	!	!	!	!
4e-\	.	.	0r	.	0r	.	8.e-\	sus-	4r	.	4r	.	4r	.	2e-/	2ee-T\	2e-/	2ee-\	4e-\	.	2g/	2ee-\	.
.	.	.	.	.	.	.	16E-\	-ci-	.	.	.	.	.	.	.	.	.	.	.	.	.	.	.
4E-\	.	.	.	.	.	.	8E-\	-pe	8r	.	8r	.	8r	.	.	.	.	.	4E-\	.	.	.	.
.	.	.	.	.	.	.	8E-\	pro	8B-\	pro	8e-\	pro	8g\	pre-	.	.	.	.	.	.	.	.	.
!	!	!	!	!	!	!	!LO:LB:g=original	!	!	!	!	!	!	!	!	!	!	!	!	!	!	!	!
=38	=38	=38	=38	=38	=38	=38	=38	=38	=38	=38	=38	=38	=38	=38	=38	=38	=38	=38	=38	=38	=38	=38	=38
!LO:TX:a:t=2	!	!	!	!	!	!	!	!	!	!	!	!	!	!	!LO:TX:a:t=2.	!LO:TX:a:t=2:color=grey	!LO:TX:a:t=2.	!LO:TX:a:t=2	!LO:TX:a:t=2	!	!LO:TX:a:t=2	!LO:TX:a:t=2	!
1r	.	.	.	.	.	.	8E-\	a-	8B-\	a-	8e-\	a-	8g\	-a-	1r	1r	1r	1r	1r	.	1r	1r	.
.	.	.	.	.	.	.	8E-\	-ni-	8B-\	-ni-	8e-\	-ni-	8g\	-ni-	.	.	.	.	.	.	.	.	.
.	.	.	.	.	.	.	8E-\	-ma-	8B-\	-ma-	8e-\	-ma-	8g\	-ma-	.	.	.	.	.	.	.	.	.
.	.	.	.	.	.	.	8E-\	-bus	8B-\	-bus	8e-\	-bus	8g\	-bus	.	.	.	.	.	.	.	.	.
=39	=39	=39	=39	=39	=39	=39	=39	=39	=39	=39	=39	=39	=39	=39	=39	=39	=39	=39	=39	=39	=39	=39	=39
.	.	.	.	.	.	.	2E-\	il-	4B-\	i-	2e-\	il-	(4g\	il-	.	.	.	.	.	.	.	.	.
.	.	.	.	.	.	.	.	.	4c\	-lud-	.	.	4a-X\)	.	.	.	.	.	.	.	.	.	.
!	!	!	!	!	!	!	!	!	!	!	!	!	!	!	!LO:LB:g=original	!	!	!	!	!	!	!	!
=40	=40	=40	=40	=40	=40	=40	=40	=40	=40	=40	=40	=40	=40	=40	=40	=40	=40	=40	=40	=40	=40	=40	=40
4r	.	.	.	.	.	.	8E-\	-los	8B-\	-liſ	8e-\	-lis	8g\	-lis	4r	4r	4r	4r	4r	.	4r	4r	.
!	!	!	!	!	!	!	!	!	!	!	!	!	!	!	!	!	!	!	!	!LO:DY:b:t=fo	!	!	!
.	.	.	.	.	.	.	8r	.	8r	.	8r	.	8r	.	.	.	.	.	.	f	.	.	.
!	!	!LO:DY:b:t=fo	!	!	!	!	!	!	!	!	!	!	!	!	!	!	!	!	!	!	!	!	!
4B-\	.	f	.	.	.	.	8B-\	qwa-	4r	.	4r	.	4r	.	4B-/	4b-/	4B-/	4b-/	4B-\	.	4f/	4b-\	.
.	.	.	.	.	.	.	8B-\	-rum	.	.	.	.	.	.	.	.	.	.	.	.	.	.	.
!	!	!	!	!	!	!	!	!	!	!	!	!	!LO:LB:g=original	!	!	!	!	!LO:LB:g=original	!	!	!	!	!
=41	=41	=41	=41	=41	=41	=41	=41	=41	=41	=41	=41	=41	=41	=41	=41	=41	=41	=41	=41	=41	=41	=41	=41
4e-\	.	.	0r	.	0r	.	8.e-\	ho-	4r	.	4r	.	4r	.	2e-/	2ee-\	2e-/	2ee-\	4e-\	.	2g/	2ee-\	.
.	.	.	.	.	.	.	16E-\	-di-	.	.	.	.	.	.	.	.	.	.	.	.	.	.	.
4E-\	.	.	.	.	.	.	8E-\	-e	8r	.	8r	.	8r	.	.	.	.	.	4E-\	.	.	.	.
.	.	.	.	.	.	.	8E-\	me-	8B-\	me-	8e-\	me-	8g\	me-	.	.	.	.	.	.	.	.	.
!	!	!	!	!	!	!	!	!	!	!	!	!	!	!	!	!	!	!	!	!	!	!LO:LB:g=original	!
=42	=42	=42	=42	=42	=42	=42	=42	=42	=42	=42	=42	=42	=42	=42	=42	=42	=42	=42	=42	=42	=42	=42	=42
!LO:TX:a:t=2	!	!	!	!	!	!	!	!	!	!	!	!	!	!	!LO:TX:a:t=7	!LO:TX:a:t=7	!LO:TX:a:t=7	!LO:TX:a:t=7	!LO:TX:a:t=2	!	!LO:TX:a:t=7	!LO:TX:a:t=7	!
1r	.	.	.	.	.	.	4E-\	-mo-	4B-\	-mo-	4e-\	-mo-	4g\	-mo-	0r	0r	2r	0r	1r	.	0r	0r	.
.	.	.	.	.	.	.	8E-\	-ri-	8B-\	-ri-	8e-\	-ri-	8g\L	-ri-	.	.	.	.	.	.	.	.	.
.	.	.	.	.	.	.	8E-\	-am	8B-\	-am	8e-\	-am	8g\J	-am	.	.	.	.	.	.	.	.	.
!	!	!	!	!	!	!	!	!	!	!	!LO:LB:g=original	!	!	!	!	!	!	!	!	!	!	!	!
=43	=43	=43	=43	=43	=43	=43	=43	=43	=43	=43	=43	=43	=43	=43	=43	=43	=43	=43	=43	=43	=43	=43	=43
.	.	.	.	.	.	.	4.E-\	fa-	4.B-\	fe-	4.e-\	fa-	4.g/	fa-	.	.	2r	.	.	.	.	.	.
.	.	.	.	.	.	.	8BB-\	-ci-	8B-\	-ci-	8d\	-ci-	8f/	-ci-	.	.	.	.	.	.	.	.	.
!	!	!	!	!	!	!	!LO:LB:g=original	!	!	!	!	!	!	!	!	!	!	!	!	!	!	!	!
=44	=44	=44	=44	=44	=44	=44	=44	=44	=44	=44	=44	=44	=44	=44	=44	=44	=44	=44	=44	=44	=44	=44	=44
!LO:TX:a:t=Tutti	!	!	!	!	!	!	!	!	!	!	!	!	!	!	!	!	!	!	!	!	!	!	!
8r	.	.	.	.	.	.	8BB-/	-mus	8B-\	-mus	8d\	-mus	8f/	-mus	.	.	2r	.	8r	.	.	.	.
!	!	!	!	!	!	!	!	!	!	!	!	!	!	!	!	!	!	!	!LO:TX:a:t=Tutti	!	!	!	!
8B-\L	.	.	.	.	.	.	8B-\	fa-	8r	.	8r	.	8r	.	.	.	.	.	8B-\L	.	.	.	.
8c\	.	.	.	.	.	.	8c\	-ce-	4r	.	4r	.	4r	.	.	.	.	.	8c\	.	.	.	.
8d\J	.	.	.	.	.	.	8d\	-at	.	.	.	.	.	.	.	.	.	.	8d\J	.	.	.	.
=45	=45	=45	=45	=45	=45	=45	=45	=45	=45	=45	=45	=45	=45	=45	=45	=45	=45	=45	=45	=45	=45	=45	=45
4e-\	.	.	8r	.	8r	.	8.e-\	Do-	2ryy	.	8r	.	8r	.	.	.	2r	.	4e-\	.	.	.	.
.	.	.	8g/L	.	8ee-\L	.	.	.	.	.	8g\	fa-	8ee-\	fa-	.	.	.	.	.	.	.	.	.
.	.	.	.	.	.	.	16E-\	-mi-	.	.	.	.	.	.	.	.	.	.	.	.	.	.	.
4E-\	.	.	8a-X/	.	8ff\	.	8E-\	-ne	.	.	8a-X\	-ce-	8ff\	-ce-	.	.	.	.	4E-\	.	.	.	.
.	.	.	8b-/J	.	8gg\J	.	8E-\	de	.	.	8b-\	-as	8gg\	-as	.	.	.	.	.	.	.	.	.
!LO:LB:g=original	!	!	!	!	!	!	!	!	!	!	!	!	!	!	!	!	!	!	!	!	!	!	!
=46	=46	=46	=46	=46	=46	=46	=46	=46	=46	=46	=46	=46	=46	=46	=46	=46	=46	=46	=46	=46	=46	=46	=46
!	!	!	!	!	!	!	!LO:SIC:v:s=2A-\	!	!	!	!	!	!	!	!	!	!	!	!	!	!	!	!
2A-X\	.	.	8cc\L	.	8aa-X\L	.	2A\	mor-	2ryy	.	8cc\	Do-	8aa-X\	Do-	1r	1r	2r	1r	2A-X\	.	1r	1r	.
.	.	.	8b-\	.	8gg\	.	.	.	.	.	8b-\	-mi-	8gg\	-mi-	.	.	.	.	.	.	.	.	.
.	.	.	8a-\	.	8ff\	.	.	.	.	.	8a-X\	-ne	8ff\	-ne	.	.	.	.	.	.	.	.	.
.	.	.	8g\J	.	8ee-\J	.	.	.	.	.	8g\	de	8ee-\	de	.	.	.	.	.	.	.	.	.
!	!	!	!LO:LB:g=original	!	!	!	!	!	!	!	!	!	!	!	!	!	!	!	!	!	!	!	!
=47	=47	=47	=47	=47	=47	=47	=47	=47	=47	=47	=47	=47	=47	=47	=47	=47	=47	=47	=47	=47	=47	=47	=47
2B-\	.	.	8f/L	.	8dd\L	.	4B-\	-te	2ryy	.	8f\L	mor-	8dd\	mor-	.	.	2r	.	2B-\	.	.	.	.
.	.	.	8e-/	.	8cc\	.	.	.	.	.	8e-\J	.	8cc\	-te	.	.	.	.	.	.	.	.	.
!	!	!	!	!	!	!	!	!	!	!	!	!	!LO:LB:g=original	!	!	!	!	!	!	!	!	!	!
.	.	.	8d/	.	8b-\	.	4BB-/	tran-	.	.	8d\	-te	8b-\	tam-	.	.	.	.	.	.	.	.	.
.	.	.	8f/J	.	8a-\J	.	.	.	.	.	8f\	tran-	8a-\	.	.	.	.	.	.	.	.	.	.
!	!	!	!	!	!LO:LB:g=original	!	!	!	!	!	!	!	!	!	!	!	!	!	!LO:LB:g=original	!	!	!	!
=48	=48	=48	=48	=48	=48	=48	=48	=48	=48	=48	=48	=48	=48	=48	=48	=48	=48	=48	=48	=48	=48	=48	=48
!	!	!	!	!LO:DY:a:t=p.o.	!	!	!	!	!	!	!	!	!	!	!	!	!	!	!LO:TX:a:t=Solo	!	!	!	!
4c\	.	.	4e-/	p	4g/	.	4C/	-si-	2ryy	.	4e-\	-si-	4g\	-si-	2r	2r	2r	2r	4c\	.	2r	2r	.
!LO:TX:a:t=Solo	!	!	!	!	!LO:TX:a:t=c	!	!	!	!	!	!	!	!	!	!	!	!	!	!	!	!	!	!
4A-X\	10	.	4e-/	.	4cc\	.	8AA-/	-re	.	.	8e-\	-re	8cc\	-re	.	.	.	.	4A-X\	.	.	.	.
.	.	.	.	.	.	.	8AA-/	ae-	.	.	8e-\	ad	8cc\	ac	.	.	.	.	.	.	.	.	.
=49	=49	=49	=49	=49	=49	=49	=49	=49	=49	=49	=49	=49	=49	=49	=49	=49	=49	=49	=49	=49	=49	=49	=49
4B-\	5_ 4	.	4e-/	.	4f/	.	2BB-/	-vi-	2ryy	.	4e-\	vi-	4f\	vi-	4r	4r	4r	4r	4B-\	.	4r	4r	.
4BB-/	x 3	.	4d/	.	4b-\	.	.	.	.	.	4d\	.	4b-\	.	4B-/	4b-/	4b-/	4ff\	4BB-/	.	4a-/	4ff\	.
!	!	!	!	!	!	!	!	!	!	!	!LO:LB:g=original	!	!	!	!	!	!	!	!	!	!	!	!
=50	=50	=50	=50	=50	=50	=50	=50	=50	=50	=50	=50	=50	=50	=50	=50	=50	=50	=50	=50	=50	=50	=50	=50
2E-\	.	.	16e-/LL	.	16e-/LL	.	8E-\	-tam	2ryy	.	8e-\	-tam	8e-/	-tam	4e-/	4g/	4g/	4ee-\	2E-\	.	4g/	4ee-\	.
.	.	.	16B-/	.	16B-/	.	.	.	.	.	.	.	.	.	.	.	.	.	.	.	.	.	.
.	.	.	16G/	.	16G/	.	8r	.	.	.	8r	.	8r	.	.	.	.	.	.	.	.	.	.
.	.	.	16B-/JJ	.	16B-/JJ	.	.	.	.	.	.	.	.	.	.	.	.	.	.	.	.	.	.
.	.	.	16e-/LL	.	16e-/LL	.	4r	.	.	.	4r	.	4r	.	4r	4r	4r	4r	.	.	4r	4r	.
.	.	.	16B-/	.	16B-/	.	.	.	.	.	.	.	.	.	.	.	.	.	.	.	.	.	.
.	.	.	16G/	.	16G/	.	.	.	.	.	.	.	.	.	.	.	.	.	.	.	.	.	.
.	.	.	16B-/JJ	.	16B-/JJ	.	.	.	.	.	.	.	.	.	.	.	.	.	.	.	.	.	.
!	!	!	!	!	!	!	!LO:LB:g=original	!	!	!	!	!	!	!	!	!	!	!	!	!	!	!	!
=51	=51	=51	=51	=51	=51	=51	=51	=51	=51	=51	=51	=51	=51	=51	=51	=51	=51	=51	=51	=51	=51	=51	=51
!	!	!	!	!	!	!	!	!	!	!	!	!	!LO:TX:a:t=4:color=grey	!	!	!	!	!	!	!	!	!	!
4E-\	.	.	16e-/LL	.	16e-/LL	.	2r	.	2ryy	.	4e-\	qua-	0r	.	4e-/	4g/	4g/	4ee-\	4E-\	.	4g/	4ee-\	.
.	.	.	16B-/	.	16B-/	.	.	.	.	.	.	.	.	.	.	.	.	.	.	.	.	.	.
.	.	.	16G/	.	16G/	.	.	.	.	.	.	.	.	.	.	.	.	.	.	.	.	.	.
.	.	.	16B-/JJ	.	16B-/JJ	.	.	.	.	.	.	.	.	.	.	.	.	.	.	.	.	.	.
4BB-/	.	.	16e-/LL	.	16d/LL	.	.	.	.	.	4f\	-mo-	.	.	4B-/	4b-/	4b-/	4ff\	4BB-\	.	4a-/	4ff\	.
.	.	.	16B-/	.	16B-/	.	.	.	.	.	.	.	.	.	.	.	.	.	.	.	.	.	.
.	.	.	16G/	.	16G/	.	.	.	.	.	.	.	.	.	.	.	.	.	.	.	.	.	.
.	.	.	16B-/JJ	.	16B-/JJ	.	.	.	.	.	.	.	.	.	.	.	.	.	.	.	.	.	.
=52	=52	=52	=52	=52	=52	=52	=52	=52	=52	=52	=52	=52	=52	=52	=52	=52	=52	=52	=52	=52	=52	=52	=52
2E-\	.	.	16e-/LL	.	16e-/LL	.	8r	.	2ryy	.	8e-\	-lim	.	.	4e-/	4g/	4g/	4ee-\	2E-\	.	4g/	4ee-\	.
.	.	.	16B-/	.	16B-/	.	.	.	.	.	.	.	.	.	.	.	.	.	.	.	.	.	.
.	.	.	16G/	.	16G/	.	8B-\L	A-	.	.	8r	.	.	.	.	.	.	.	.	.	.	.	.
.	.	.	16B-/JJ	.	16B-/JJ	.	.	.	.	.	.	.	.	.	.	.	.	.	.	.	.	.	.
!	!	!	!	!	!	!	!	!	!	!	!	!	!	!	!	!	!	!	!	!	!LO:TX:b:t=Vi:color=grey	!	!
.	.	.	16e-/LL	.	16e-/LL	.	8G\J	-bra-	.	.	4r	.	.	.	4r	4r	4r	4r	.	.	4r	4r	.
.	.	.	16B-/	.	16B-/	.	.	.	.	.	.	.	.	.	.	.	.	.	.	.	.	.	.
.	.	.	16G/	.	16G/	.	8E-\	-he-	.	.	.	.	.	.	.	.	.	.	.	.	.	.	.
.	.	.	16B-/JJ	.	16B-/JJ	.	.	.	.	.	.	.	.	.	.	.	.	.	.	.	.	.	.
!	!	!	!	!	!	!	!	!	!	!	!	!	!	!	!	!	!	!	!	!	!LO:PB:g=original	!	!
=53	=53	=53	=53	=53	=53	=53	=53	=53	=53	=53	=53	=53	=53	=53	=53	=53	=53	=53	=53	=53	=53	=53	=53
!	!	!	!	!	!	!	!	!	!	!	!	!	!	!	!	!	!	!	!	!	!LO:TX:a:t=de:color=grey	!	!
!	!	!	!	!	!	!	!	!	!	!	!	!	!	!	!	!	!	!	!	!	!LO:TX:b:t=koniec od ofertoryi:color=grey	!	!
4BB-/	.	.	16f/LL	.	16f/LL	.	4BB-/	-e	2ryy	.	8f\	pro-	.	.	4B-/	4b-/	4b-/	4ff\	4BB-\	.	4b-\	4ff\	.
.	.	.	16d/	.	16d/	.	.	.	.	.	.	.	.	.	.	.	.	.	.	.	.	.	.
.	.	.	16B-/	.	16B-/	.	.	.	.	.	8f\	-mi-	.	.	.	.	.	.	.	.	.	.	.
.	.	.	16d/JJ	.	16d/JJ	.	.	.	.	.	.	.	.	.	.	.	.	.	.	.	.	.	.
4E-\	.	.	16f/LL	.	16g/LL	.	4r	.	.	.	4g\	-si-	.	.	4e-/	4g/	4ee-\	4gg\	4E-\	.	4cc\	4gg\	.
.	.	.	16d/	.	16e-/	.	.	.	.	.	.	.	.	.	.	.	.	.	.	.	.	.	.
.	.	.	16B-/	.	16B-/	.	.	.	.	.	.	.	.	.	.	.	.	.	.	.	.	.	.
.	.	.	16d/JJ	.	16e-/JJ	.	.	.	.	.	.	.	.	.	.	.	.	.	.	.	.	.	.
!	!	!	!LO:LB:g=original	!	!	!	!	!	!	!	!	!	!	!	!	!LO:LB:g=original	!	!	!	!	!	!	!
=54	=54	=54	=54	=54	=54	=54	=54	=54	=54	=54	=54	=54	=54	=54	=54	=54	=54	=54	=54	=54	=54	=54	=54
!	!	!	!	!	!	!	!LO:TX:a:t=3	!	!	!	!	!	!	!	!	!	!	!	!	!	!	!	!
2BB-/	.	.	16f/LL	.	16f/LL	.	1r	.	2ryy	.	8f\	-sti	.	.	4B-/	4b-/	4b-/	4ff\	2BB-/	.	4dd\	4ff\	.
.	.	.	16d/	.	16d/	.	.	.	.	.	.	.	.	.	.	.	.	.	.	.	.	.	.
.	.	.	16B-/	.	16B-/	.	.	.	.	.	8r	.	.	.	.	.	.	.	.	.	.	.	.
.	.	.	16d/JJ	.	16d/JJ	.	.	.	.	.	.	.	.	.	.	.	.	.	.	.	.	.	.
.	.	.	16f/LL	.	16f/LL	.	.	.	.	.	4r	.	.	.	4r	4r	4r	4r	.	.	4r	4r	.
.	.	.	16d/	.	16d/	.	.	.	.	.	.	.	.	.	.	.	.	.	.	.	.	.	.
.	.	.	16B-/	.	16B-/	.	.	.	.	.	.	.	.	.	.	.	.	.	.	.	.	.	.
.	.	.	16d/JJ	.	16d/JJ	.	.	.	.	.	.	.	.	.	.	.	.	.	.	.	.	.	.
!	!	!	!	!	!LO:LB:g=original	!	!	!	!	!	!	!	!	!	!	!	!	!	!	!	!	!	!
=55	=55	=55	=55	=55	=55	=55	=55	=55	=55	=55	=55	=55	=55	=55	=55	=55	=55	=55	=55	=55	=55	=55	=55
!	!	!	!LO:TX:a:t=P:problem:mixed beam	!	!LO:TX:a:t=P:problem:mixed beam	!	!	!	!	!	!	!	!	!	!	!	!	!	!	!	!	!	!
2E-\	.	.	16g/LL	.	16g/LL	.	.	.	2ryy	.	8r	.	8r	.	2e-/	2ee-\	2e-/	2ee-\	2E-\	.	8ccL 8g\	8ee-\L	.
.	.	.	16e-/J	.	16e-/	.	.	.	.	.	.	.	.	.	.	.	.	.	.	.	.	.	.
.	.	.	8cc\J	.	16ee-\	.	.	.	.	.	8cc\	et	8ee-\	et	.	.	.	.	.	.	8cc 8g\	8ee-\	.
.	.	.	.	.	16e-/JJ	.	.	.	.	.	.	.	.	.	.	.	.	.	.	.	.	.	.
!	!	!	!	!	!LO:TX:a:t=P:problem:mixed beam	!	!	!	!	!	!	!	!	!	!	!	!	!	!	!	!	!	!
.	.	.	8b-\L	.	16dd\LL	.	.	.	.	.	8b-\	se-	8dd\	se-	.	.	.	.	.	.	8b-\	8dd\	.
.	.	.	.	.	16e-/JJ	.	.	.	.	.	.	.	.	.	.	.	.	.	.	.	.	.	.
!	!	!	!	!	!LO:TX:a:t=P:problem:mixed beam	!	!	!	!	!	!	!	!	!	!	!	!	!	!	!	!	!	!
.	.	.	8a-\J	.	16cc\LL	.	.	.	.	.	16a-\	-mi-	16cc\	-mi-	.	.	.	.	.	.	8b-\J	8cc\J	.
.	.	.	.	.	16e-/JJ	.	.	.	.	.	16a-\	-ni	16cc\	-ni	.	.	.	.	.	.	.	.	.
=56	=56	=56	=56	=56	=56	=56	=56	=56	=56	=56	=56	=56	=56	=56	=56	=56	=56	=56	=56	=56	=56	=56	=56
2E-\	.	.	8g/L	.	16b-/LL	.	2r	.	2ryy	.	8g\L	e-	8b-\	e-	2e-/	2ee-\	2e-/	2ee-\	2E-\	.	8g\L	8b-\L	.
.	.	.	.	.	16e-/	.	.	.	.	.	.	.	.	.	.	.	.	.	.	.	.	.	.
.	.	.	8f#X/	.	16an/	.	.	.	.	.	8f#X\J	.	8an\	-jus	.	.	.	.	.	.	8f#X\	8a\	.
.	.	.	.	.	16e-/JJ	.	.	.	.	.	.	.	.	.	.	.	.	.	.	.	.	.	.
.	.	.	8g/	.	16b-/LL	.	.	.	.	.	8g\	-jus	8b-\	.	.	.	.	.	.	.	8g\	8b-\	.
.	.	.	.	.	16e-/	.	.	.	.	.	.	.	.	.	.	.	.	.	.	.	.	.	.
.	.	.	8g/J	.	16b-/	.	.	.	.	.	8r	.	8ee-\	in	.	.	.	.	.	.	8f#\J	8a\J	.
.	.	.	.	.	16e-/JJ	.	.	.	.	.	.	.	.	.	.	.	.	.	.	.	.	.	.
!	!	!	!	!	!	!	!	!	!	!	!LO:LB:g=original	!	!LO:LB:g=original	!	!	!	!	!	!	!	!	!	!
=57	=57	=57	=57	=57	=57	=57	=57	=57	=57	=57	=57	=57	=57	=57	=57	=57	=57	=57	=57	=57	=57	=57	=57
!	!	!	!	!	!	!	!LO:TX:b:t=b:color=grey	!	!	!	!	!	!	!	!	!	!	!	!	!	!	!	!
2BB-/	.	.	16G/LL	.	4e-/	.	2BB-/	e-	2ryy	.	2B-/	e-	4e-/	se-	2B-/	2cc/	2B-/	2b-/	2BB-/	.	4cc\	4ee-\	.
.	.	.	16B-/	.	.	.	.	.	.	.	.	.	.	.	.	.	.	.	.	.	.	.	.
.	.	.	16e-/	.	.	.	.	.	.	.	.	.	.	.	.	.	.	.	.	.	.	.	.
.	.	.	16B-/JJ	.	.	.	.	.	.	.	.	.	.	.	.	.	.	.	.	.	.	.	.
.	.	.	16G/LL	.	8g/L	.	.	.	.	.	.	.	8g\	-cu-	.	.	.	.	.	.	8ee-\L	8gg\L	.
.	.	.	16B-/	.	.	.	.	.	.	.	.	.	.	.	.	.	.	.	.	.	.	.	.
.	.	.	16d/	.	8f/J	.	.	.	.	.	.	.	8f\	-la	.	.	.	.	.	.	8dd\J	8ff\J	.
.	.	.	16B-/JJ	.	.	.	.	.	.	.	.	.	.	.	.	.	.	.	.	.	.	.	.
!LO:LB:g=original	!	!	!	!	!	!	!	!	!	!	!	!	!	!	!	!	!	!	!	!	!	!LO:LB:g=original	!
=58	=58	=58	=58	=58	=58	=58	=58	=58	=58	=58	=58	=58	=58	=58	=58	=58	=58	=58	=58	=58	=58	=58	=58
!	!	!	!LO:TX:a:t=P:problem:mixed beam	!	!LO:TX:a:t=P:problem:mixed beam	!	!	!	!	!	!	!	!	!	!	!	!	!	!	!	!LO:TX:a:t=P:problem:tt.58-60 zapisane repetycją	!	!
2E-\	.	.	16G/LL	.	8e-/L	.	8E-\	-jus	2ryy	.	8B-\	-jus	8e-\	.	2e-/	2ee-\	2e-/	2ee-\	2E-\	.	8ccL 8g\yy	8ee-\L	.
.	.	.	16B-/J	.	.	.	.	.	.	.	.	.	.	.	.	.	.	.	.	.	.	.	.
.	.	.	8cc\J	.	16ee-\L	.	8r	.	.	.	8cc\	et	8ee-\	et	.	.	.	.	.	.	8cc 8g\yy	8ee-\	.
.	.	.	.	.	16e-/JJ	.	.	.	.	.	.	.	.	.	.	.	.	.	.	.	.	.	.
!	!	!	!	!	!LO:TX:a:t=P:problem:mixed beam	!	!	!	!	!	!	!	!	!	!	!	!	!	!	!	!	!	!
.	.	.	8b-\L	.	16dd\LL	.	4r	.	.	.	8b-\	se-	8dd\	se-	.	.	.	.	.	.	8b-\yy	8dd\	.
.	.	.	.	.	16e-/JJ	.	.	.	.	.	.	.	.	.	.	.	.	.	.	.	.	.	.
!	!	!	!	!	!LO:TX:a:t=P:problem:mixed beam	!	!	!	!	!	!	!	!	!	!	!	!	!	!	!	!	!	!
.	.	.	8a-\J	.	16cc\LL	.	.	.	.	.	16a-\	-mi-	16cc\	-mi-	.	.	.	.	.	.	8b-\Jyy	8cc\J	.
.	.	.	.	.	16e-/JJ	.	.	.	.	.	16a-\	-ni	16cc\	-ni	.	.	.	.	.	.	.	.	.
!	!	!	!	!	!	!	!	!	!	!	!	!	!	!	!	!	!LO:LB:g=original	!LO:LB:g=original	!	!	!	!	!
=59	=59	=59	=59	=59	=59	=59	=59	=59	=59	=59	=59	=59	=59	=59	=59	=59	=59	=59	=59	=59	=59	=59	=59
2E-\	.	.	8g/L	.	16b-/LL	.	2r	.	2ryy	.	8g\L	e-	8b-\L	e-	2e-/	2ee-\	2e-/	2ee-\	2E-\	.	8g\Lyy	8b-\L	.
.	.	.	.	.	16e-/	.	.	.	.	.	.	.	.	.	.	.	.	.	.	.	.	.	.
.	.	.	8f#X/	.	16a-/	.	.	.	.	.	8f#X\J	.	8an\J	.	.	.	.	.	.	.	8f#X\yy	8a\	.
.	.	.	.	.	16e-/JJ	.	.	.	.	.	.	.	.	.	.	.	.	.	.	.	.	.	.
.	.	.	8g/	.	16b-/LL	.	.	.	.	.	8g\	-jus	8b-\	-jus	.	.	.	.	.	.	8g\yy	8b-\	.
.	.	.	.	.	16e-/	.	.	.	.	.	.	.	.	.	.	.	.	.	.	.	.	.	.
.	.	.	8g/J	.	16b-/	.	.	.	.	.	8r	.	8ee-\	in	.	.	.	.	.	.	8f#\Jyy	8a\J	.
.	.	.	.	.	16e-/JJ	.	.	.	.	.	.	.	.	.	.	.	.	.	.	.	.	.	.
=60	=60	=60	=60	=60	=60	=60	=60	=60	=60	=60	=60	=60	=60	=60	=60	=60	=60	=60	=60	=60	=60	=60	=60
*	*	*	*	*	*	*	*	*	*	*	*	*ij	*	*	*	*	*	*	*	*	*	*	*
!	!	!	!	!	!	!	!LO:TX:a:t=b:color=grey	!	!	!	!	!	!	!	!	!	!	!	!	!	!	!	!
!	!	!	!	!	!	!	!LO:N:vis=1	!	!	!	!	!	!	!	!	!	!	!	!	!	!	!	!
2BB-/	.	.	16G/LL	.	4e-/	.	2BB-/	e-	2ryy	.	2B-/	e-	4e-/	se-	2B-/	2b-/	2B-/	2b-/	2BB-/	.	4cc\yy	4ee-\	.
.	.	.	16B-/	.	.	.	.	.	.	.	.	.	.	.	.	.	.	.	.	.	.	.	.
.	.	.	16e-/	.	.	.	.	.	.	.	.	.	.	.	.	.	.	.	.	.	.	.	.
.	.	.	16B-/JJ	.	.	.	.	.	.	.	.	.	.	.	.	.	.	.	.	.	.	.	.
.	.	.	16G/LL	.	8g/L	.	.	.	.	.	.	.	8g\	-cu-	.	.	.	.	.	.	8ee-\Lyy	8gg\L	.
.	.	.	16B-/	.	.	.	.	.	.	.	.	.	.	.	.	.	.	.	.	.	.	.	.
.	.	.	16d/	.	8f/J	.	.	.	.	.	.	.	8f\	.	.	.	.	.	.	.	8dd\Jyy	8ff\J	.
.	.	.	16B-/JJ	.	.	.	.	.	.	.	.	.	.	.	.	.	.	.	.	.	.	.	.
!	!	!	!	!	!	!	!LO:LB:g=original	!	!	!	!	!	!	!	!LO:LB:g=original	!	!	!	!	!	!	!	!
=61	=61	=61	=61	=61	=61	=61	=61	=61	=61	=61	=61	=61	=61	=61	=61	=61	=61	=61	=61	=61	=61	=61	=61
!	!	!	!	!	!	!	!	!	!	!	!	!	!	!	!	!LO:TX:a:t=P:problem:mixed beam	!	!	!	!	!	!	!
8E-\	.	.	8G/	.	8e-/	.	8E-\	-jus	2ryy	.	8B-/	-jus	8e-/	-la	8e-/L	8ee-\L	8e-/L	8ee-\L	8E-\	.	8cc\L	8ee-\L	.
*	*	*	*	*	*	*	*	*	*	*	*	*Xij	*	*	*	*	*	*	*	*	*	*	*
8r	.	.	8r	.	8r	.	8r	.	.	.	8r	.	8r	.	8B-/	8B-/	8B-/	8b-\	8r	.	8g\	8b-\	.
4r	.	.	4r	.	4r	.	4r	.	.	.	4r	.	4r	.	8e-/	8e-/	8e-/	8ee-\	4r	.	8b-\	8ee-\	.
.	.	.	.	.	.	.	.	.	.	.	.	.	.	.	8g/J	8g/J	8g/J	8gg\J	.	.	8ee-\J	8gg\J	.
!	!	!	!LO:LB:g=original	!	!LO:LB:g=original	!	!	!	!	!	!	!	!LO:LB:g=original	!	!	!	!	!	!	!	!	!	!
=62	=62	=62	=62	=62	=62	=62	=62	=62	=62	=62	=62	=62	=62	=62	=62	=62	=62	=62	=62	=62	=62	=62	=62
*	*	*	*	*	*	*	*	*ij	*	*	*	*	*	*	*	*	*	*	*	*	*	*	*
!LO:TX:a:t=Tutti	!	!	!	!	!	!	!	!	!	!	!	!	!	!	!	!	!	!	!	!	!	!	!
4B-\	6 4	.	4g 4B-/	.	4ee-\	.	2BB-/	e-	2ryy	.	4g\	e-	4ee-\	e-	4b-/	2b-/	2b-/	2bb-\	4B-\	.	4gg\	4bb-\	.
4BB-/	5 3	.	4f 4B-/	.	4dd\	.	.	.	.	.	4f\	.	4dd\	.	4B-/	.	.	.	4BB-/	.	4b-\	4dd\	.
=63	=63	=63	=63	=63	=63	=63	=63	=63	=63	=63	=63	=63	=63	=63	=63	=63	=63	=63	=63	=63	=63	=63	=63
!	!	!	!	!	!	!	!	!	!	!	!	!	!	!	!	!LO:TX:a:t=P:problem:mixed beam	!LO:TX:a:t=P:problem:mixed beam	!	!	!	!LO:TX:a:t=P:problem:tt.63-64 zapisane repetycją	!	!
8E-\	8	.	8g 8B-/	.	8ee-\	.	8E-\	-jus	2ryy	.	8g\	-jus	8ee-\	-jus	8e-/L	8ee-\L	8ee-\L	8ee-\L	8E-\	.	8cc\Lyy	8ee-\L	.
8r	.	.	8r	.	8r	.	8r	.	.	.	8r	.	8b-\	et	8B-/	8B-/	8B-/	8b-\	8r	.	8g\yy	8b-\	.
4r	.	.	4r	.	4r	.	4r	.	.	.	4r	.	8ee-\	se-	8e-/	8e-/	8e-/	8ee-\	4r	.	8b-\yy	8ee-\	.
.	.	.	.	.	.	.	.	.	.	.	.	.	16gg\	-mi-	8g/J	8g/J	8g/J	8gg\J	.	.	8ee-\Jyy	8gg\J	.
.	.	.	.	.	.	.	.	.	.	.	.	.	16gg\	-ni	.	.	.	.	.	.	.	.	.
!	!	!	!	!	!	!	!	!	!	!	!LO:LB:g=original	!	!	!	!	!	!	!	!	!	!	!	!
=64	=64	=64	=64	=64	=64	=64	=64	=64	=64	=64	=64	=64	=64	=64	=64	=64	=64	=64	=64	=64	=64	=64	=64
4B-\	6 4	.	4g 4B-/	.	4ee-\	.	2BB-/	e-	2ryy	.	4g\	e-	4ee-\	e-	4b-/	2b-/	2b-/	2bb-\	4B-\	.	4gg\yy	4bb-\	.
4BB-/	5 3	.	4f 4B-/	.	4dd\	.	.	.	.	.	4fn\	.	4dd\	.	4B-/	.	.	.	4BB-/	.	4b-\yy	4dd\	.
=65	=65	=65	=65	=65	=65	=65	=65	=65	=65	=65	=65	=65	=65	=65	=65	=65	=65	=65	=65	=65	=65	=65	=65
4E-\	8	.	4g 4B-/	.	4ee-\	.	4E-\	-jus	2ryy	.	4g\	-jus	4ee-\	-jus	4e-/	4g/	4ee-\	4gg\	4E-\	.	4g\	4ee-\	.
*	*	*	*	*	*	*	*	*Xij	*	*	*	*	*	*	*	*	*	*	*	*	*	*	*
!	!	!	!	!	!	!	!	!	!	!	!	!	!	!	!	!	!	!	!	!	!	!LO:TX:b:t=V S	!
4r	.	.	4r	.	4r	.	4r	.	.	.	4r	.	4r	.	4r	4r	4r	4r	4r	.	4r	4r	.
==	==	==	==	==	==	==	==	==	==	==	==	==	==	==	==	==	==	==	==	==	==	==	==
*-	*-	*-	*-	*-	*-	*-	*-	*-	*-	*-	*-	*-	*-	*-	*-	*-	*-	*-	*-	*-	*-	*-	*-
!!!system-decoration: [(g1)][(g2)][(g3)][(g4)]s14
!!!RDF**kern: | = vertical stroke
!!!END: Berenika Jozajtis
!!!END: 2020-11-09
!!!AIN: 1 alto 1 bass 2 clars 2 cor 1 fagot 1 organ 1 soprn 1 tenor 2 tromp 2 violn
!!!ENC: Marta Lawrence
!!!END: 2022-04-02
